iamhaha0123/trajectory_planning/src/other/active_motion_zeroed.csv
time,joint1,joint2,joint3,joint4,joint5,joint6
0.0,4.136452450698158e-05,-0.0005636775822281,0.0013351702217327,0.0062473603481345,0.0007970099457317,-0.0030758672874533
0.010295867919921875,4.0546260319906935e-05,-0.0006287846501678,0.0014842546306477,0.0069373786485025,0.0008792724399118,-0.0034202050870746
0.020560503005981445,6.290001112585486e-05,-0.0006924357219348,0.00161966674783,0.0075405235011425,0.0009492468972123,-0.0037211661824496
0.02976822853088379,-3.940607957808595e-05,-0.0008132139518632,0.0018962294399287,0.0088205567058849,0.0011018479340538,-0.0043599364537492
0.04155993461608887,-4.003084999748552e-05,-0.0009775320741267,0.0022828285512082,0.0106334766926208,0.0013199129504801,-0.0052646579571185
0.05017805099487305,5.280252371608896e-05,-0.0011121400895941,0.0025807222235707,0.0119886379701661,0.0014795351017138,-0.005940892364352
0.0599212646484375,4.7361230206988125e-05,-0.001232163453821,0.002855556452431,0.0132606707210092,0.0016311820987997,-0.0065756701611867
0.07111549377441406,-4.719004803899196e-05,-0.0013034448607447,0.003029114985761,0.0140875683231227,0.0017317014599349,-0.0069883430055917
0.07978582382202148,-5.4694375145381e-05,-0.0014666843341917,0.0034029064287066,0.0158176142223966,0.0019379531785332,-0.0078516826250396
0.08986449241638184,3.96468216834478e-05,-0.0017110716668407,0.0039625132181546,0.018407682944888,0.0022467343934238,-0.0091441968164929
0.10033726692199707,-3.957184816005821e-05,-0.0018096343402715,0.0041778722313638,0.0193808282508234,0.0023608034238327,-0.0096297895835206
0.11126327514648438,3.950909069683206e-05,-0.0020002374786667,0.0046143229264306,0.0214008801484757,0.0026016257979426,-0.0106378485121254
0.1205909252166748,-4.318106112322084e-05,-0.0021191285560382,0.0048865645058615,0.0226609126526726,0.0027518416004301,-0.0112666378025849
0.12991690635681152,-4.0347627520809226e-05,-0.0023671014021431,0.0054543826531032,0.0252889801789422,0.0030651486951036,-0.0125781124374118
0.14000511169433594,-4.065395843078079e-05,-0.0024244186128186,0.0055959603141921,0.0259678838773549,0.0031480400952297,-0.0129169408499194
0.15001988410949707,-5.174914454642021e-05,-0.0027348567101732,0.0063068124643139,0.0292579713769676,0.0035402741730079,-0.0145587830708109
0.15973138809204102,-5.833906563168512e-05,-0.0029509887842094,0.0067913915260593,0.0314771394762223,0.0038028735860615,-0.0156661660838022
0.17142128944396973,-6.185907102107535e-05,-0.0030156663786193,0.0069498204339648,0.0322340505151572,0.0038950727257303,-0.0160439266082192
0.17991375923156738,-6.855262080485147e-05,-0.0032419889171286,0.0074577354162892,0.0345612188355852,0.0041705432284429,-0.0172052024062896
0.19007110595703125,-7.583622752704855e-05,-0.0034112155082768,0.007855562960362,0.0364261620217343,0.0043948420503499,-0.0181359029083694
0.20009875297546387,-8.10310073262599e-05,-0.0035986622532844,0.008274460512375,0.0383413161140886,0.0046211883377971,-0.0190915698013203
0.21032261848449707,-8.868759629443446e-05,-0.0037771362246115,0.0086934613450901,0.0403042652081433,0.004857175656034,-0.0200711805165045
0.21984338760375977,-0.0001021555468323,-0.0041615511580141,0.0095737085104978,0.0443783736393603,0.0053428755716504,-0.0221042698979392
0.232940673828125,-0.0001101337757347,-0.0043895203619737,0.0100957206359773,0.0467944379553575,0.0056309093358493,-0.0233099507426626
0.23969364166259766,-0.0001162532874872,-0.0045644603129195,0.0104963044748211,0.048648487316667,0.0058519416900875,-0.0242351710365849
0.24983453750610352,-0.0001286637148787,-0.004961947218347,0.0113961662759747,0.0527896880266647,0.0063436484141368,-0.026301684332731
0.2655465602874756,-0.0001373384480549,-0.0052102976169665,0.0119648492709725,0.0554217557904666,0.0066574289356262,-0.0276151546613263
0.2698709964752197,-0.0001486095843361,-0.0054901135553624,0.0126158990150369,0.0584587485819874,0.0070214792427929,-0.0291307538023062
0.27994465827941895,-0.0001622799392517,-0.0059243994343107,0.0136000292244471,0.0629899506465152,0.0075596655023515,-0.0313918806349615
0.2901899814605713,-0.0001741436214466,-0.0062640884963149,0.0143778633901634,0.0665900433311188,0.0079888469448174,-0.0331884203398296
0.2998342514038086,-0.0001839129203737,-0.0065006893028893,0.0149299526024426,0.069169033963309,0.0082983088890795,-0.0344754719124615
0.31001830101013184,-0.0001938263268392,-0.0067845186434221,0.0155798755586697,0.0721771141397162,0.0086569170765891,-0.0359765840169714
0.3198416233062744,-0.0002116811159176,-0.0072957511872564,0.0167505148871542,0.077595258571864,0.0093028399810908,-0.0386803821982084
0.3299429416656494,-0.0002195787830352,-0.007565097809179,0.0173569691036545,0.0803783983255552,0.0096326067705785,-0.0400691665534314
0.339855432510376,-0.0002302549644186,-0.0078708180593016,0.0180570202510494,0.0836184817403724,0.010018867702267,-0.041686051885561
0.3520083427429199,-0.0002384003954407,-0.0081040712988356,0.0185911333992558,0.0860905453805758,0.010313570189246,-0.0429196754567176
0.3598616123199463,-0.0002494453680714,-0.0084203596886522,0.0193153839833684,0.0894426316720151,0.0107131825352011,-0.0445924529764756
0.37092971801758523,-0.0002578673989619,-0.0086615390343887,0.0198676467136929,0.0919986974682842,0.0110178985527937,-0.0458679956817729
0.38089704513550515,-0.0002691148340527,-0.0089404143831499,0.0205165266401605,0.0950257233371383,0.0113808001640389,-0.0473786463061074
0.3900270462036133,-0.0002748875520151,-0.0091057299567118,0.0208950725265095,0.0967777700597691,0.0115896683953913,-0.0482529639568749
0.4003636837005615,-0.000283844777666,-0.0094054584937373,0.0215711052851093,0.0998829003932488,0.0119577955270964,-0.049802415821416
0.41004347801208496,-0.0003075792250157,-0.0100419521614769,0.0230388699266619,0.1067000346670035,0.0127725371852127,-0.0532044359826464
0.41988468170166016,-0.0003170438757384,-0.0103562111149733,0.0237481795596465,0.1099591596686693,0.0131590096413853,-0.0548307278076549
0.4298856258392334,-0.0003292128766627,-0.0106615082949259,0.0244575534319295,0.1132662097701633,0.0135553121172673,-0.0564811303291996
0.4411635398864746,-0.000335512481115,-0.0108419212437409,0.0248706699804621,0.115178260757748,0.0137832535335231,-0.0574352940794202
0.45105600357055664,-0.0003453923369267,-0.011168068687799,0.0256072062285985,0.1185633809865969,0.0141847353803177,-0.0591244544611058
0.460005521774292,-0.0003547274715653,-0.0113922185210251,0.02613076204684,0.1210104162721306,0.0144785215529799,-0.0603456929579575
0.47104883193969727,-0.0003681788422182,-0.0118206497827779,0.027101514881469,0.1254795588190917,0.0150092240011172,-0.0625758037973192
0.4815640449523926,-0.0003882238970716,-0.0123947249468718,0.0284160573529925,0.1315637152023159,0.0157345243909468,-0.0656119528767238
0.4900650978088379,-0.0004122091901317,-0.0130816525826862,0.0299890144810248,0.1388439022734608,0.0166024032016594,-0.069244951351294
0.5005714893341064,-0.0004327787302091,-0.0136275659368223,0.0312493485011238,0.1447010477186232,0.0173027346460985,-0.0721679379888087
0.5104176998138428,-0.000440411375111,-0.0138893588120465,0.0318385359474113,0.1474041221347155,0.0176228733238712,-0.073516718185564
0.5202553272247314,-0.0004548286368732,-0.0143022703627622,0.0327840391716902,0.1517802344692294,0.018144551760078,-0.0757005090121918
0.5301191806793213,-0.0004621163102491,-0.0145109907470937,0.0332619764083839,0.153992291237472,0.0184082518076769,-0.0768043812735683
0.5412585735321045,-0.0004768497422196,-0.0149329607350496,0.0342282221347938,0.1584644059722011,0.018941373541601,-0.079036079486066
0.550422191619873,-0.0004874367033522,-0.015192970201447,0.034833873928016,0.1612914895000248,0.01928050392788,-0.0804469999591539
0.5642423629760742,-0.0004993451019936,-0.0155772387629955,0.0357035188695622,0.1652925810457146,0.0197553601931881,-0.0824435110101617
0.5702493190765452,-0.0005101299544403,-0.0158429103311243,0.0363221331530176,0.1681796728102682,0.020101650251731,-0.0838843819298365
0.5804710388183594,-0.0005339773621981,-0.0165691326859978,0.0379748023315418,0.1758048503401328,0.021008524040428,-0.0876893976863542
0.590360164642334,-0.0005490060788435,-0.0169563387354898,0.0388717069377824,0.1799799866478153,0.021508371276087,-0.0897730434049197
0.6001126766204834,-0.0005689382174054,-0.0175272067789302,0.0401789040409159,0.1860301474185748,0.0222296115595987,-0.0927922294866263
0.6108391284942627,-0.0005777547736922,-0.017822965357567,0.0408458854223088,0.1890931902349457,0.0225926160299758,-0.0943206120541209
0.6200649738311768,-0.0005899707105516,-0.0181728458586665,0.0416470578018497,0.1928012848969826,0.023034653689649,-0.0961710438777867
0.6300699710845947,-0.0006097906301825,-0.0186972505285814,0.0428581186493355,0.1984304762633471,0.0237078512807444,-0.0989803120475336
0.6410880088806152,-0.000622303266164,-0.0190556236450163,0.0436787363393662,0.2022285767695164,0.0241606205073985,-0.1008756614784296
0.6525106430053711,-0.0006434211555284,-0.0196604608853547,0.0450637179459727,0.2086387461783623,0.0249247715214204,-0.1040744999078047
0.6601419448852539,-0.0006648684114747,-0.0202747340227666,0.0464703063908515,0.2151489179852692,0.0257008420235242,-0.1073232417210316
0.671682596206665,-0.0006831768805311,-0.0208424308587602,0.0477599969540332,0.2210940038854669,0.0264073784008349,-0.1102898131466929
0.6804699897766113,-0.0007052492762644,-0.0214746316276572,0.0492076398267178,0.2277941735021356,0.0272060892318934,-0.1136333631109547
0.6941323280334473,-0.0007311863341854,-0.0221741688871501,0.0508197129696084,0.2352794481783569,0.0281005698149003,-0.1173688874365783
0.6999344825744629,-0.0007458094620629,-0.0226363715046851,0.0518678464120521,0.240106484776243,0.0286738053357646,-0.1197775091967354
0.7112753391265869,-0.000753951010644,-0.0228261856802687,0.0523127289725566,0.2421896299062309,0.0289243176192206,-0.1208172427252218
0.7209155559539795,-0.000786374850751,-0.0237548615447078,0.0544392510114946,0.2520318884513495,0.0300975886949306,-0.1257287776719735
0.7299888134002686,-0.0008062800354924,-0.0243684136305599,0.0558339586315455,0.2584629477234292,0.0308620173832405,-0.1289378329998278
0.7401015758514404,-0.0008253342124024,-0.0249141825121501,0.0570836862839136,0.2642470932600282,0.0315515233136505,-0.1318242623856456
0.7509009838104248,-0.00084830307593,-0.0255286121185909,0.0585008623136085,0.2708303811122601,0.0323384995669151,-0.1351096965297298
0.7624778747558594,-0.0008640748039017,-0.0260238372382257,0.059624626934883,0.2760073886241478,0.0329534195487077,-0.1376929349935025
0.7725212574005127,-0.0008887157428807,-0.0267296381395674,0.0612408038917413,0.2834875760963848,0.0338450992269416,-0.1414257292695069
0.7803795337677002,-0.0009074434963682,-0.0272225359437454,0.0623796837450374,0.2887828500173297,0.0344785458466914,-0.1440684251746304
0.7904102802276611,-0.0009187195148996,-0.0275890546414299,0.0632087374443184,0.2925958039340317,0.0349308476400294,-0.1459709542913145
0.8012509346008301,-0.0009338992072898,-0.0280238582941798,0.0642043719946219,0.2972039190067441,0.0354801579605679,-0.1482705143712497
0.8097467422485352,-0.0009389854447494,-0.0281695477229808,0.0645379787360784,0.2987479575396223,0.0356642149006551,-0.1490410266261417
0.8215041160583496,-0.0009736527355741,-0.0291189536958089,0.0667221857072819,0.3088813729045707,0.0368744007170809,-0.1540980844065576
0.8314275741577148,-0.0009905721977894,-0.0296472010407109,0.0679215815358764,0.3144083474804784,0.0375310052595061,-0.1568559354362886
0.839815616607666,-0.0010314145588434,-0.0307734366583698,0.0705106954513148,0.3264158270956194,0.0389645922590933,-0.1628482067286842
0.8498058319091797,-0.0010420879285639,-0.0310791584383505,0.0712107510624395,0.3296559108292767,0.03935082465477,-0.1644650875622861
0.8597862720489502,-0.001081292179931,-0.03224583360823,0.0738720587223635,0.341949029496094,0.0408139607420094,-0.1705993879604204
0.8699712753295898,-0.0011086988408459,-0.0330308963940249,0.0756697345723713,0.3502692346338492,0.0418057563301896,-0.174751365825891
0.8797097206115723,-0.0011476212528496,-0.0341458366740132,0.0782227805686988,0.362085524933585,0.0432142928150067,-0.1806479710938227
0.8900597095489502,-0.0011799499034292,-0.0350280661736244,0.0802531414205924,0.3715069861360165,0.0443396256470682,-0.185349785316351
0.8999841213226318,-0.001191334430846,-0.0353541696152763,0.0809998682332766,0.3749630741466108,0.0447516012459017,-0.1870744559010138
0.9098114967346191,-0.0012315950822561,-0.0365074209334794,0.0836406368806015,0.3871853840865569,0.046208532397471,-0.1931736798652306
0.9204456806182861,-0.0012448334014178,-0.0369305459098949,0.0845993481595872,0.3915982424649948,0.0467322760623138,-0.1953755010313678
0.929776668548584,-0.0012682598820674,-0.0376016239557577,0.0861360167344855,0.3987104135797361,0.0475800590612056,-0.198924637819621
0.9410755634307861,-0.0012741494196308,-0.0377703370606763,0.0865223445793779,0.4004984565010225,0.0477931966039673,-0.1998169122305793
0.9510049819946289,-0.0012843068705823,-0.0380173481215644,0.0870981390089244,0.4031877868942528,0.048116052945156,-0.2011592577720762
0.959890604019165,-0.0013080766863851,-0.0386982402696718,0.0886572779553214,0.4104039676247284,0.0489762343412714,-0.204760301885047
0.9707543849945068,-0.001345850865654,-0.0398243344999462,0.0912256927481998,0.4222669764680464,0.0503880309569018,-0.2106798999337638
0.9798526763916016,-0.0013806501524307,-0.0407771508668997,0.0934176660339591,0.4324365163694939,0.0516025424887578,-0.2157550588768266
0.9900593757629395,-0.0014194482182201,-0.0419326830814741,0.0960534976679898,0.4446115052353079,0.0530515119521313,-0.2218303236343555
1.0018882751464844,-0.0014444019601604,-0.0426475439804781,0.097690423042315,0.4521876833066907,0.0539545936425867,-0.2256110060335174
1.0123100280761719,-0.0014695663351131,-0.0433684439076609,0.0993411769437351,0.4598278622621006,0.0548653026448677,-0.2294236256398623
1.0201148986816406,-0.0014994355066288,-0.0441799151631405,0.1012094787935522,0.4684994037831913,0.0559012527126761,-0.2337512707574731
1.0299961566925049,-0.0015205269746472,-0.0448283608296931,0.1026841703325773,0.4753002226474461,0.0567096025033162,-0.23714467629115
1.039989709854126,-0.0015573610296293,-0.0458393082332229,0.1050092372724948,0.4860858312407741,0.0579975477444083,-0.2425272977125949
1.0499041080474854,-0.0015965704184282,-0.0469625550594727,0.1075813023741174,0.4979901184930746,0.0594165289590948,-0.2484678054440685
1.0607361793518066,-0.0016117353167413,-0.0474413410290717,0.1086675083830117,0.5029928604946372,0.0600105394335752,-0.2509639091056943
1.0701773166656494,-0.0016449349702023,-0.0483924765985834,0.1108454682789839,0.5130730903201579,0.0612120887279417,-0.2559941622875517
1.080080509185791,-0.001669685050782,-0.0490571315298336,0.1123775656389289,0.5201886495000201,0.0620625650785875,-0.2595453682276201
1.0897936820983887,-0.0017102370457351,-0.0502188772304448,0.1150377877459769,0.5325009413857726,0.063530168613612,-0.2656894742180444
1.1001832485198975,-0.0017123214490339,-0.0503230556907636,0.1152662093277285,0.5335335529275813,0.0636509396499604,-0.2662043728267953
1.1107513904571533,-0.0017396445701862,-0.0511058556257983,0.1170587056626928,0.5418297389091729,0.0646398275112094,-0.270344346451651
1.1201696395874023,-0.0017858129845045,-0.0523840349686359,0.1199956720973194,0.5554474797103337,0.0662653451714883,-0.2771402992551426
1.1330218315124512,-0.0018206921225072,-0.0533832951507804,0.1222838271614827,0.5660377253578295,0.0675276745586908,-0.2824250614178911
1.139857292175293,-0.0018488323197871,-0.0541894971979868,0.1241299082599409,0.5745819221389068,0.0685461183240301,-0.2866887997746126
1.1499927043914795,-0.0018652044767391,-0.054703188175833,0.1252960667310603,0.5799545795700043,0.0691842081409808,-0.2893694434419895
1.1613097190856934,-0.0018914374142227,-0.0554101234350303,0.1269249583015108,0.5875182175998805,0.0700880843644418,-0.2931442882138526
1.1697943210601807,-0.0019295833760049,-0.0565477131993494,0.1295197571622708,0.5995030007988182,0.0715143164286109,-0.2991245094360053
1.182676076889038,-0.0019658100032806,-0.0575856596790691,0.1318965016169633,0.6105032349604809,0.0728255051994493,-0.3046138513371819
1.1901366710662842,-0.0019877038827553,-0.0582129568419551,0.1333329196466985,0.617151375530737,0.0736179387527551,-0.3079314087332445
1.1999297142028809,-0.0020170799341965,-0.0590546372240163,0.1352602435973082,0.626071563012558,0.0746811904959052,-0.3123827628545594
1.2101202011108398,-0.0020591454805725,-0.0602150667345124,0.1379275542584954,0.6384413527408936,0.0761579265854228,-0.3185560012916326
1.2197933197021484,-0.0020914411348602,-0.061185258920605,0.1401390529910697,0.6486520315494255,0.0773726881851182,-0.3236508690438207
1.2322628498077393,-0.002104040165447,-0.0615013674723829,0.1408729890608846,0.6520736491109078,0.0777828346825693,-0.3253587972535499
1.2398037910461426,-0.002141814223151,-0.0625836643556425,0.143351285734731,0.6635438959074866,0.0791500333931214,-0.3310826840609877
1.2526030540466309,-0.0021570159434673,-0.0630192251895005,0.1443486543531946,0.6681599945528562,0.079700249618579,-0.3333862107990555
1.260110855102539,-0.0021977572471554,-0.0642315390954921,0.1471145847907378,0.6809366858158263,0.081220868956148,-0.3397615464776091
1.2700395584106445,-0.0022518823109001,-0.0657824209696835,0.150665874994833,0.6973730115296304,0.0831799961292221,-0.3479635908347536
1.280031681060791,-0.0022752761070377,-0.0664527462187569,0.1522008206364695,0.7044771507183878,0.0840267724361378,-0.3515086925149475
1.289839744567871,-0.0022987883045031,-0.0671264684211339,0.1537435447472113,0.7116172896284771,0.0848778389720124,-0.3550717580452485
1.301173448562622,-0.002346167899712,-0.0684841036825583,0.1568523283613334,0.7260055664952878,0.0865928427422133,-0.3622517805424508
1.3107571601867676,-0.0023700352917765,-0.0691680167416519,0.158418387850669,0.7332537043948104,0.0874567799858203,-0.3658687374554041
1.323124647140503,-0.0024181252582353,-0.0705460337141863,0.1615738421675097,0.7478579789386286,0.0891975252011736,-0.3731565424455052
1.3301968574523926,-0.0024423478288264,-0.0712401376240974,0.1631632369780309,0.7552141155172967,0.0900743331855142,-0.3768273904643475
1.339827299118042,-0.0024965808427825,-0.0727489563227328,0.1666282663778577,0.7712760889908514,0.0919910843130127,-0.3848431513961934
1.3499782085418701,-0.0025321767920951,-0.0738142480887846,0.1690575666641187,0.7824946117437106,0.0933260013807153,-0.3904408552548499
1.3599038124084473,-0.0025790352820571,-0.0751117059926995,0.1720386035496055,0.7963165630992792,0.0949757379705165,-0.3973388124100605
1.370046615600586,-0.0026207557436066,-0.0763072347986018,0.1747761821617208,0.808986797447786,0.0964859404743272,-0.4036614907889966
1.3839366436004639,-0.0026403902688594,-0.0769152591073245,0.1761584183227817,0.8153591873890056,0.0972432468837833,-0.4068408633141267
1.3898253440856934,-0.0026826027473552,-0.0781249403886485,0.1789284070413455,0.8281794052008866,0.0987713313269083,-0.4132383759086266
1.4008045196533203,-0.0027222264330806,-0.0792150027558129,0.1814345259328291,0.839803351504635,0.1001590482704282,-0.4190395039976113
1.4097859859466553,-0.0027422526413714,-0.0798343466065274,0.1828426903098057,0.8462957064479388,0.100930671103832,-0.4222787225577917
1.4202535152435303,-0.0027736719961382,-0.0806892684700164,0.1848103680779855,0.8554276236919511,0.1020213432817467,-0.4268362905264453
1.4312868118286133,-0.0028169049783421,-0.0819282028284602,0.1876473370958944,0.8685578478908473,0.1035863647733981,-0.4333885003601114
1.4398365020751953,-0.0028779835296539,-0.0836785634104151,0.1916553927073172,0.887108157497452,0.1057974159492687,-0.4426454223797336
1.4498140811920166,-0.002922005616142,-0.0849401441608819,0.194544217354851,0.9004783753050809,0.1073910390509222,-0.4493173866195246
1.460258960723877,-0.0029605490791562,-0.0860903443649325,0.1971679778282782,0.9125967426475016,0.1088332824567572,-0.4553640415835609
1.4698545932769775,-0.0030020739219391,-0.0872347681730767,0.1997985498641092,0.924796759395278,0.1102895925062981,-0.4614526633952742
1.4797468185424805,-0.0030470166172928,-0.0885227696389048,0.2027478723432292,0.93844696786452,0.1119165844234242,-0.4682643396455699
1.4902079105377197,-0.0030832075019748,-0.0895599646897746,0.2051228868374028,0.9494391318929764,0.1132267585633366,-0.4737496063226682
1.4997618198394775,-0.0031411048399725,-0.0912649897570654,0.2090171224918622,0.9674375141344892,0.1153698935599401,-0.4827304488024442
1.5100419521331787,-0.0031746053316599,-0.0921793729596727,0.2111209204831956,0.9771995306860752,0.1165355631530884,-0.4876024834347117
1.5202105045318604,-0.0032055422714734,-0.0931117834867008,0.2132459946034206,0.9870097694124284,0.1177027577949934,-0.4924973010472993
1.5301299095153809,-0.0032426530228706,-0.094175397823192,0.2156815063841444,0.9982819117083784,0.1190463111214015,-0.4981222684217599
1.5403501987457275,-0.0032953886996249,-0.0956410307798831,0.2190475691922024,1.0138860241798202,0.1209082770487413,-0.505909604043433
1.5500268936157227,-0.0033457927197169,-0.0971314758696175,0.2224504639633746,1.0296102888101224,0.1227804132945973,-0.5137555865520156
1.5601811408996653,-0.0033803100116305,-0.0980749295561302,0.2246208092559269,1.039680348028334,0.1239827352199114,-0.5187813529075136
1.570082187652588,-0.0034218030718147,-0.0993100360837528,0.2274390246137363,1.052698549128487,0.1255323560377856,-0.52527695655216
1.5803864002227854,-0.0034279488554549,-0.0994403058960733,0.227747302175846,1.0541505211738285,0.1257074527011497,-0.5260021785903
1.5918831825256348,-0.0034566899954366,-0.1002640609628304,0.2296335687977224,1.0628806226349772,0.1267480038530912,-0.5303586238853502
1.600273609161377,-0.0035083209988089,-0.1017897902937337,0.2331172696253798,1.078978826930987,0.1286647624937922,-0.5383911789523435
1.6122243404388428,-0.0035763493744704,-0.1037396245103368,0.2375820796451524,1.0996430313247991,0.1311277765224119,-0.5487028957612559
1.620039463043213,-0.0036351725320775,-0.1054256310926815,0.2414427647825787,1.1175111980099324,0.1332575247546978,-0.5576193469259607
1.63108491897583,-0.0036548855248392,-0.1059906528214265,0.2427365737022464,1.123499251766079,0.1339712548828942,-0.5606074637803875
1.6421535015106201,-0.0036845536981049,-0.106841016184334,0.2446837688112104,1.1325113306447046,0.1350454257783493,-0.5651046075821586
1.649824619293213,-0.0037342638028299,-0.1082658371756464,0.2479463785686899,1.1476114573170246,0.1368452458303766,-0.5726397632204616
1.6623539924621582,-0.0037806551334114,-0.1095495651509192,0.2508958570079658,1.1612876058175114,0.138477243397209,-0.5794650308319671
1.671151876449585,-0.0038245709085868,-0.1108542934576855,0.2538735224286714,1.1750436696023208,0.1401149580444363,-0.5863287781998636
1.6799473762512207,-0.003854910119184,-0.1117239060783683,0.2558647931027531,1.1842597357105449,0.1412134439199777,-0.5909277073077739
1.6904077529907227,-0.0038955466178407,-0.1128886736829803,0.2585319197946436,1.1966038201349338,0.1426847665437369,-0.5970875536861904
1.6997365951538086,-0.0039568962213376,-0.1146471483335132,0.2625585364543488,1.2152399386391082,0.1449060537118924,-0.6063871964952856
1.7099852561950684,-0.0040187195629659,-0.1164192106680692,0.2666162650254176,1.2340200471582443,0.1471445049034683,-0.6157586870190528
1.7211203575134277,-0.0040810165067766,-0.1182048607370296,0.2707051055186538,1.2529441454479755,0.1494001202197257,-0.6252020250557635
1.730445146560669,-0.0041084851925194,-0.1189462251373063,0.2724126286335231,1.2608722867251192,0.1503468633688234,-0.6291589723015534
1.739835500717163,-0.004150411502227,-0.1201479830767509,0.2751644487775628,1.2736083505205782,0.151864892372938,-0.6355144090014289
1.7502467632293701,-0.0041609259824504,-0.1204493661547685,0.2758545643506913,1.2768023656851677,0.1522455915384455,-0.637108257520218
1.7597739696502686,-0.0042348958893505,-0.1225696159875333,0.2807095713790701,1.2992724628558117,0.1549238351925748,-0.6483210776691202
1.769916296005249,-0.0042600979530318,-0.1233379912093477,0.2824591076248577,1.3073443657430834,0.155884242445814,-0.6523483195754238
1.7798833847045898,-0.0042774539789185,-0.1237894911139072,0.2835028739775858,1.31220051115893,0.1564647490551678,-0.6547723094730689
1.789837121963501,-0.0043456881218295,-0.1257913253039069,0.2880768236607993,1.3333444380264723,0.15898327368064,-0.6653226208702367
1.804880142211914,-0.0044172224335365,-0.1277957921271717,0.2926766026667984,1.354658630462354,0.1615254028449664,-0.6759593399057522
1.8129477500915527,-0.0044321210469675,-0.1282688153016336,0.2937498491533077,1.35960048911066,0.1621128203081596,-0.6784246491237909
1.8197360038757324,-0.0044756535825065,-0.1295166187888616,0.2966071029472603,1.3728245064781257,0.1636890370079298,-0.6850235607268242
1.8307576179504395,-0.0045152886385491,-0.1306067513745548,0.2991132020525571,1.3844486779637242,0.1650761337783031,-0.6908248595315438
1.8422586917877197,-0.0045743721961111,-0.1323462566451452,0.3030864799271171,1.4028125252565902,0.1672634181524612,-0.6999878616669406
1.8499503135681152,-0.0046075154908029,-0.1332962630858434,0.3052618279070955,1.4128805251521692,0.1684634612496296,-0.7050118849501459
1.8601055145263672,-0.0046741577724018,-0.1352064667077419,0.3096358574079492,1.4331245151687255,0.1708764216400178,-0.7151138158743979
1.8697359561920166,-0.0047188496385492,-0.1364874848534141,0.3125691623314406,1.4467005068322312,0.1724945990930955,-0.7218883536085521
1.881476640701294,-0.0048046389056981,-0.1389006321787045,0.3181046936383929,1.47234557132019,0.1755527595441623,-0.7346861844812533
1.889730453491211,-0.004872828519197,-0.1408552061031445,0.3225803092372503,1.4930597149791254,0.1780217321514605,-0.7450227106738705
1.900228500366211,-0.0049415459684425,-0.1428248972248029,0.3270905381324782,1.5139340525358778,0.1805098020704072,-0.7554391697471825
1.910118818283081,-0.0049919815045536,-0.1443162384077938,0.3304956033121531,1.5296680542300631,0.182383872367442,-0.7632898343840733
1.9200289249420166,-0.0050381383265314,-0.1456392205595227,0.3335249918040306,1.5436887293620316,0.184055065673335,-0.7702862578898522
1.9302570819854736,-0.0050568239160746,-0.1461291066470478,0.334656562920137,1.5489512824842802,0.1846836106344884,-0.7729130324140261
1.9409427642822266,-0.0050843339612027,-0.1469633091707214,0.3365569128858636,1.557721124015627,0.1857276577983082,-0.7772885275044281
1.9502298831939697,-0.005153557011913,-0.1489474104114281,0.3411001407142358,1.5787481737240734,0.1882339819755314,-0.7877811784992392
1.9603543281555176,-0.0051880814189129,-0.1499369574354832,0.3433660211282969,1.5892351612198752,0.1894839826393486,-0.7930142600482917
1.9701998233795166,-0.0052410623759993,-0.1514098311520122,0.3467484277014714,1.6049150728305586,0.1913541250216104,-0.800839359598946
1.9798226356506348,-0.0052981276132051,-0.1530454333299147,0.3504936457540495,1.622248752806431,0.1934201912387125,-0.809488982053324
1.9897730350494385,-0.0053661738976451,-0.1549957546570741,0.3549595090985908,1.642917731434717,0.1958838080985403,-0.8198029371050151
1.999744176864624,-0.0054155356426104,-0.1564561796085639,0.3582938276274632,1.6583242680369947,0.1977191162622169,-0.827490192307117
2.009854555130005,-0.0054561660236833,-0.1575750466436654,0.3608655922137309,1.670252350502066,0.1991419356357919,-0.833443084186479
2.022831678390503,-0.005493910809073,-0.1587024877710474,0.3634374510955336,1.6821300541390911,0.2005566794105178,-0.839369431576614
2.0298585891723633,-0.0055342189439615,-0.1598121117236992,0.3659880388979708,1.693960124906413,0.2019677709064993,-0.845273407743818
2.0414531230926514,-0.0056006087662741,-0.1617148760544973,0.3703449997081058,1.7141250620605168,0.2043713245805847,-0.855335830407963
2.0502450466156006,-0.0056487286726625,-0.1631396209866915,0.3735976458113255,1.729153582721839,0.2061617333835643,-0.8628344602101539
2.0628912448883057,-0.0057142904731399,-0.1650186033807221,0.3779001572369296,1.749066506677888,0.2085352986395126,-0.8727711266445333
2.0698442459106445,-0.0057468939218621,-0.1659529991858095,0.3800397449909987,1.7589689650555729,0.2097156461386049,-0.8777125108259671
2.0846855640411377,-0.005829246696746,-0.1682675476948274,0.3853493340347356,1.7835682587460084,0.2126486228561148,-0.8899883729701443
2.090402841567993,-0.0058507194328338,-0.1688829306167605,0.3867584395199133,1.7900898901763718,0.2134259733796417,-0.8932427018305837
2.100470542907715,-0.0059254599938629,-0.1710248815988304,0.3916630836481722,1.8127895920752195,0.2161316849980536,-0.904569972229302
2.1118457317352295,-0.0059572945159365,-0.1719371990370817,0.3937521096837288,1.8224580320051305,0.2172841256168736,-0.9093945736544278
2.12013578414917,-0.0060139889610875,-0.1736075281015656,0.3975671420548092,1.8400893652662609,0.2193850400957986,-0.9181920411750664
2.130910873413086,-0.0060730090924829,-0.1752533003325096,0.4013453219455112,1.8576009602138333,0.221473037742296,-0.9269310723491097
2.1428675651550293,-0.0061185268414174,-0.1766032883558148,0.4044268514733717,1.871837486122569,0.2231693808274206,-0.934034521808595
2.149946451187134,-0.0061561663009221,-0.1776363251465502,0.4068019728305732,1.882855436455657,0.2244832927417048,-0.9395331802730632
2.1603081226348877,-0.0061871334019354,-0.1785237317352281,0.4088339563400982,1.8922598615689985,0.2256042734475247,-0.9442260340757826
2.169750213623047,-0.0062422373457815,-0.1801483790638842,0.4125444183031126,1.9094072051854667,0.2276476702427876,-0.9527820064455366
2.179746150970459,-0.0062996674339528,-0.1817484932641431,0.4162180134547064,1.926434738437795,0.2296778332985685,-0.9612794612283384
2.1913208961486816,-0.0063337781511112,-0.1827715293593277,0.4185509197594435,1.93720647749014,0.2309613430138339,-0.9666539851414502
2.1997361183166504,-0.0063905578533658,-0.1843529651876752,0.4221817303330457,1.9540359847509856,0.2329678468753409,-0.975052613036956
2.210515260696411,-0.0064405925122592,-0.1857866837397495,0.4254646570089821,1.969230004523757,0.2347789493546619,-0.9826344997691868
2.2203543186187744,-0.0064839802086673,-0.1870755079601602,0.4284061874076048,1.9828185691725508,0.2363983329254049,-0.989414648663466
2.229970932006836,-0.0065495121078269,-0.1889076501019735,0.4326110404351642,2.00230483425012,0.2387214296487618,-0.9991389929895628
2.2399330139160156,-0.0065887249054474,-0.1900312238575923,0.4351837974660153,2.014212040686809,0.240140759428276,-1.0050807439209244
2.249763250350952,-0.0066374451451887,-0.1914271987196238,0.4383802979067415,2.0290060456933574,0.2419041971390099,-1.0124630205752982
2.2598965167999268,-0.0066471497584554,-0.1917052613806085,0.4390170052189868,2.0319528463044776,0.2422554547491913,-1.013933487652478
2.2698092460632324,-0.0067338997423114,-0.1941908406361756,0.4447084794682618,2.0582940462826507,0.2453953243343907,-1.0270778678472574
2.2833943367004395,-0.0067625797829187,-0.1950125731783547,0.4465900809510117,2.06700244418429,0.2464333679885255,-1.031423398617166
2.2904207706451416,-0.0067850252267263,-0.1957012848709611,0.4481575225606464,2.074231464600352,0.2472949264571573,-1.0350301410479918
2.2997701168060303,-0.0068290397595669,-0.1969167388068804,0.4509502355382899,2.08718203555134,0.2488387874599702,-1.041493108183385
2.3100109100341797,-0.006841832730239,-0.1973288946456657,0.4518844292995387,2.091480271235305,0.2493510366828069,-1.0436373825585186
2.3219070434570312,-0.0068794414456423,-0.1984064190788226,0.4543517487482154,2.1028994739019886,0.2507122439335267,-1.0493356225459625
2.330031156539917,-0.0069261565042033,-0.1997448323083253,0.4574164524518354,2.117083475403888,0.2524030284946539,-1.0564135115118063
2.3433873653411865,-0.0069692847268871,-0.2009348166101334,0.4601508225454092,2.129764001381977,0.2539146125205223,-1.0627417084150128
2.349958658218384,-0.0069817806626062,-0.2013384727797431,0.4610655766971661,2.133972274735342,0.2544162407152566,-1.0648411089507128
2.359842300415039,-0.0071006756817411,-0.2047447470507863,0.468865278092144,2.1700706652710444,0.2587193350701904,-1.0828543934499848
2.3724191188812256,-0.0071368116448979,-0.2057799986041191,0.4712358018929681,2.181041860462793,0.2600271582415727,-1.0883290776868648
2.380830764770508,-0.0071785810423437,-0.2069309292095731,0.4738807133647436,2.193308316283918,0.2614892547540508,-1.0944506273299872
2.3904778957366943,-0.0072084523005253,-0.2078323847452958,0.4759353658122149,2.202792248632619,0.262619925734695,-1.0991826373324771
2.399765968322754,-0.0072616304052308,-0.2093558219948343,0.4794237405716348,2.21893703809914,0.264544482363009,-1.1072389745514766
2.410010576248169,-0.0073025727844342,-0.2104829806410757,0.482014199298626,2.2309514507225536,0.2659764585810151,-1.1132347393295117
2.423600435256958,-0.007331797960826,-0.2113659352769525,0.4840265094711702,2.240239422296206,0.2670838658386145,-1.1178689811522542
2.4300966262817454,-0.0073722677943166,-0.2124795098152985,0.4865858524278312,2.2521098101097827,0.2684986314086997,-1.1237928690370662
2.441981315612793,-0.0073925039916522,-0.2131049689740001,0.4880085596762038,2.2586690071869384,0.2692808025929754,-1.1270654468543846
2.4497885704040527,-0.0074411209688776,-0.2144518829991044,0.4911021943101108,2.2730121679035875,0.2709902997515439,-1.1342232548221922
2.4598262310028076,-0.0074781087212656,-0.2155572207159997,0.493623742564627,2.284656984226189,0.2723787688917314,-1.1400335953604852
2.4712798595428467,-0.0074950717987372,-0.2160431418270656,0.4947364082940444,2.289806579511186,0.2729926424085649,-1.1426032731602884
2.47981595993042,-0.0075119822512164,-0.2165275531911801,0.4958456170751768,2.294940174772469,0.2736046093414286,-1.145164967004078
2.489997148513794,-0.0075344194030417,-0.2171244539340087,0.4972218516468976,2.3013349082334464,0.2743665355496425,-1.1483564540588365
2.501582145690918,-0.0075595881589052,-0.2178454107340863,0.4988727001486106,2.3089752917823674,0.2752773178156715,-1.1521690471978427
2.510094404220581,-0.007601273000457,-0.2190394566543778,0.5016068296132579,2.3216292642669725,0.2767857556597812,-1.1584834493753515
2.5202503204345703,-0.0076095704860055,-0.2192771335289389,0.5021510628032901,2.3241480587815677,0.2770860132817434,-1.1597403418846728
2.5298478603363037,-0.0076618080417558,-0.2208193168622427,0.5056729335876797,2.340422532207839,0.2790265152085203,-1.1678609342939037
2.540224552154541,-0.0077026697028337,-0.2219897708410849,0.5083530502032261,2.352826520827474,0.2805051928159559,-1.1740506007571874
2.5509939193725586,-0.0077486145615894,-0.2232598925036786,0.5112707992209513,2.366355566518946,0.2821174676633715,-1.1808021296655031
2.559765338897705,-0.0077993954188464,-0.2247603618647167,0.5146971781649343,2.382188095216925,0.2840054005394954,-1.188702210748108
2.5712695121765137,-0.007820686540942,-0.2253242518077201,0.515997779671987,2.388232719353569,0.2847254120722517,-1.1917189589183153
2.580212116241455,-0.0078602659152702,-0.226457907788049,0.5185936317815019,2.400246693947592,0.2861575876070006,-1.1977140051188275
2.5911924839019775,-0.0079020429718799,-0.2277005020507791,0.5214295454576536,2.4133464713910198,0.2877198356953512,-1.2042504428060052
2.601539373397827,-0.0079306796232625,-0.2284747100126249,0.5232117189462242,2.4216198500122914,0.2887054749645843,-1.2083793423652995
2.6110615730285645,-0.0079616323902662,-0.2293612531834679,0.5252417320951341,2.4310150313357024,0.2898254765348707,-1.2130675971631728
2.6198489665985107,-0.0080152929625505,-0.2308981723951495,0.5287609821743464,2.4473026000883777,0.2917671282870229,-1.2211951984868588
2.630270481109619,-0.0080404979845249,-0.2316661606949059,0.5305101637173539,2.455372847858662,0.2927299113164308,-1.2252218892276066
2.639777898788452,-0.0080631591574986,-0.232315214555471,0.5319963767496692,2.4622512452262466,0.2935499089477433,-1.2286542574175885
2.649874210357666,-0.0081057818384051,-0.2334898632240083,0.5346954598987574,2.474768151344202,0.2950413357649362,-1.2349006897830606
2.660229206085205,-0.0081304317644956,-0.2342419945769576,0.5364083472605063,2.4826704398534787,0.295984161639037,-1.238843580020724
2.6699044704437256,-0.008174687714253,-0.2355095299576328,0.5393107704426905,2.496103238520909,0.2975855464650072,-1.2455466434967768
2.6799187660217285,-0.0082039283533221,-0.2363470048199181,0.5412284345660607,2.5049784386985223,0.2986436028158907,-1.249975433273617
2.692915916442871,-0.0082451787203581,-0.2374822185075249,0.5438372000498699,2.5170772888665898,0.3000851217102234,-1.2560132413047531
2.6999340057373047,-0.0082739197702075,-0.2383053522572478,0.5457220222549957,2.525800478308854,0.3011250448238298,-1.2603661750055934
2.712162971496582,-0.0083024501397597,-0.2391224470158999,0.5475930167442904,2.5344596687283243,0.3021573412297336,-1.2646871734247735
2.7197701930999756,-0.0083469713679349,-0.2404437944586321,0.5506093391579476,2.548394453540517,0.3038194808601746,-1.2716403519537085
2.729998826980591,-0.0083798222827651,-0.2413383190572,0.5526669524035448,2.557942447671742,0.3049568308304069,-1.27640525282912
2.739786148071289,-0.0084075625417732,-0.2421327676066811,0.5544860929360311,2.566361642027493,0.3059605267468166,-1.2806064939937745
2.750751256942749,-0.008435092088824,-0.2429211771688324,0.5562914057403168,2.5747168375012635,0.306956595773161,-1.2847757999008689
2.7604737281799316,-0.0084576131999751,-0.2436125245187552,0.5578651633860918,2.581975283846045,0.3078228966063809,-1.2883974509395912
2.7697367668151855,-0.0084847468587172,-0.244389609592738,0.5596445500522549,2.590210494199493,0.3088046826180219,-1.292506887382224
2.779996156692505,-0.008511669786559,-0.2451606556888608,0.5614101089526793,2.5983817057107625,0.3097788413774047,-1.2965843885049662
2.7899606227874756,-0.0085297860621729,-0.2456330536058892,0.5625011071305748,2.60345603084388,0.3103827750137071,-1.299116880453994
2.8024344444274902,-0.0085582778223898,-0.246495455071245,0.5644665639546362,2.612527328708378,0.3114652660026236,-1.3036431711051577
2.8097846508026123,-0.0086042404501798,-0.2478117600932288,0.5674806713868978,2.6264769554331515,0.3131283318074853,-1.3106041517812663
2.8198797702789307,-0.0086154046477755,-0.2480849844316246,0.5681155853012161,2.629440438154937,0.3134805676793011,-1.3120833083205774
2.829777717590332,-0.0086495576375256,-0.2491095707826387,0.5704524312330648,2.64023058599674,0.3147680385517946,-1.3174673305241988
2.8420517444610596,-0.0086815318767516,-0.250025255345295,0.5725491897239836,2.649934610232462,0.3159249560588302,-1.3223097223124345
2.849855661392212,-0.008686112416111,-0.2501098734665543,0.5727522185328233,2.6508992550723818,0.3160388523367441,-1.322791435280143
2.860786199569702,-0.00870687415226,-0.2507510091470584,0.5742110402371807,2.6576258310908933,0.3168419090383434,-1.326147708492455
2.8699934482574463,-0.0087569263756082,-0.2521843998239452,0.5774932578221792,2.672816276797745,0.3186529320657225,-1.3337278748299983
2.880005121231079,-0.0087861146586156,-0.2529736402753819,0.5793097372180531,2.6812480981467104,0.319657024175215,-1.3379357666144769
2.8900225162506104,-0.0088122273246593,-0.2537680904681254,0.581119638306391,2.6895995347046693,0.3206538629130664,-1.3421028710677447
2.9005751609802246,-0.0088288051253009,-0.2541961546116154,0.5821090805142619,2.694203724133416,0.3212015984786909,-1.3444007372226991
2.9107446670532227,-0.0088664611283357,-0.255321208825241,0.5846760153729518,2.7060587996532064,0.3226161778847709,-1.3503161945417066
2.9209799766540527,-0.0088961298913128,-0.2561708421053437,0.5866215319874168,2.7150628388352054,0.3236896667976072,-1.3548092933997091
2.9299886226654053,-0.0089181108209217,-0.2567535511718803,0.5879650738643827,2.721305794988586,0.3244327403445597,-1.357924912974358
2.939763069152832,-0.0089371127872821,-0.2573444763973933,0.5893089571097079,2.727500497468837,0.3251725277696193,-1.3610158014179063
2.9500577449798655,-0.0089587722901764,-0.2579179402931961,0.5906313242766936,2.7336454353014794,0.3259038978764357,-1.364082506327522
2.961613416671753,-0.0089888564177176,-0.2588262593984209,0.5927019925410129,2.743203779424329,0.327044736915667,-1.3688518881561895
2.9698238372802734,-0.009021364435128,-0.2597103284199002,0.5947355864591977,2.752640308191824,0.3281685191434427,-1.3735611246242383
2.983527421951294,-0.0090395327663976,-0.2602774701040653,0.5960250242737128,2.758583068883688,0.3288783283649383,-1.376526301867866
2.989926815032959,-0.0090658845614051,-0.2609851982558115,0.5976548219887823,2.766150768651064,0.3297792833249326,-1.3803029723275737
3.000444173812866,-0.00907688282164,-0.2613001413511897,0.5983759884383115,2.7694883847578264,0.3301772068015243,-1.3819684746553431
3.009784460067749,-0.0091162411658025,-0.2624741418381537,0.6010550414030682,2.781862423224723,0.3316538218004892,-1.3881429284528988
3.020864963531494,-0.0091470867075127,-0.2633104714239866,0.602979306546426,2.790792899241925,0.3327172250157479,-1.3925996336106063
3.0300207138061523,-0.0091629713373926,-0.2637653352764415,0.6040208688460948,2.795613328092429,0.3332919406423729,-1.3950050749074148
3.0404229164123535,-0.0091799355484321,-0.2642981233540871,0.6052316623008336,2.801192170471932,0.3339584387110683,-1.3977886662330583
3.0504045486450195,-0.0091851577580754,-0.2644476684818952,0.605574096437091,2.802776983372766,0.3341473910152022,-1.39857950392671
3.059959888458252,-0.0092150635222783,-0.2652570147587996,0.6074365671844468,2.8114214309220227,0.3351766690600444,-1.402893474985488
3.0709543228149414,-0.0092315646381111,-0.2657765900093496,0.6086171124966198,2.816860303873737,0.335826506162193,-1.4056072245874098
3.0798192024230957,-0.0092507439316449,-0.2662787329439391,0.6097761333340133,2.82224910905086,0.3364676105639139,-1.4082965952027775
3.0911104679107666,-0.0092808131680577,-0.2671397713747803,0.6117477700797957,2.8313739800812634,0.337555537214496,-1.4128499984772898
3.1003305912017822,-0.0093114300807171,-0.2680636300471724,0.6138540690432164,2.8410973378161604,0.3387162402862147,-1.4177017562791665
3.1098625659942627,-0.0093298742402492,-0.2685446405251159,0.6149646914093418,2.8462621068615803,0.3393306049769364,-1.420279326664593
3.12152361869812,-0.009330869292965,-0.2686202926317298,0.6151287381742669,2.8469966002789366,0.3394196016369735,-1.420645550361236
3.132361650466919,-0.0093691151257537,-0.2697155008914089,0.6176365923736631,2.858603130010975,0.3408034373949515,-1.4264373318517656
3.1407463550567627,-0.0093963456124779,-0.2704480480341242,0.6193231872284102,2.8664335021366103,0.3417355975852238,-1.4303450636139594
3.1501193046569824,-0.0094157362844855,-0.2710505420449722,0.6206936274366708,2.8727513012360983,0.3424903185939651,-1.4334974211088929
3.1610920429229736,-0.0094286125963041,-0.2713720102091477,0.6214389126408895,2.8762252076129684,0.342903048578604,-1.4352312283775053
3.1711883544921875,-0.00945575599569,-0.2721492577721678,0.6232186857074344,2.8844621022057986,0.3438851251252641,-1.439341526766933
3.180837631225586,-0.0094602337655747,-0.272277478005714,0.6235122896650269,2.8858209183478394,0.3440471356897987,-1.4400195906005475
3.189781427383423,-0.0094999405897482,-0.2734144754745555,0.6261158338481518,2.897870268479906,0.3454837738252942,-1.4460323463780649
3.200122833251953,-0.0095215386288671,-0.2740329304646813,0.6275319983675995,2.9044243556714022,0.3462652172618279,-1.4493029072220915
3.2118306159973145,-0.0095392640003373,-0.2745878614994543,0.628793542407931,2.9102382346299898,0.3469599137701733,-1.4522038120042715
3.219825029373169,-0.0095602351821604,-0.2751883872462377,0.6301686546834979,2.916602338296798,0.3477187166921336,-1.455379570794152
3.231649398803711,-0.0095720295211805,-0.2754787239412257,0.6308426391217186,2.919746176002505,0.3480920447736952,-1.4569486639422262
3.2419583797454834,-0.0095890412724264,-0.2760132709938743,0.6320575130534376,2.9253440877336736,0.3487610132440926,-1.459741801960921
3.2533762454986643,-0.0096086521277065,-0.2765274013196608,0.6332439474096674,2.930859551539351,0.3494171043330647,-1.4624943618627515
3.2607553005218506,-0.0096206224111927,-0.2768701665921806,0.6340288268630854,2.93449201201574,0.3498502076927483,-1.4643070002693737
3.2730419635772705,-0.0096485938679977,-0.2777186021371571,0.6359624640363055,2.943416424896096,0.3509158252811275,-1.4687601033577158
3.2804019451141357,-0.0096596666056747,-0.2779881841403062,0.6365889148844976,2.946340220709555,0.3512628904949482,-1.4702193897905698
3.2942256927490234,-0.0096791426629572,-0.278593387986457,0.6379655926564478,2.952687014172131,0.3520211874083694,-1.4733862337520351
3.2998383045196533,-0.0096936794130613,-0.2789621291347437,0.6388190999036771,2.956661617897121,0.3524935341782997,-1.475369884248984
3.3129005432128906,-0.0097015006788581,-0.2792336250756451,0.6394316401668743,2.9594719604528947,0.3528301807089136,-1.4767720002495155
3.3202693462371826,-0.00972662456034,-0.279905501786355,0.6409792797972269,2.966659023965734,0.3536855523743245,-1.480358704395936
3.330406665802002,-0.0097447932113565,-0.2804733361953699,0.6422703949098718,2.9726098641365475,0.3543966654251873,-1.4833279669303092
3.33978533744812,-0.009761978078183,-0.2809178371661911,0.6432973747971182,2.977387263356194,0.3549647149902242,-1.48571221975857
3.3512747287750244,-0.0097791605447916,-0.2814098509913183,0.6444240124408518,2.9826013871687014,0.3555864137308706,-1.4883141281388088
3.360466957092285,-0.0097861877340941,-0.2816586965659047,0.644984695790968,2.985171782651287,0.35589448013575,-1.489596511682743
3.3721067905426025,-0.0097929022917169,-0.2818509725267093,0.6454249795771299,2.987209437178725,0.3561374396026595,-1.490613325328451
3.380296230316162,-0.0098059670700951,-0.2821774464178563,0.6461816909588043,2.9907359909792053,0.356556334322649,-1.4923733904676144
3.3899669647216797,-0.0098256842366488,-0.2827897061824069,0.6475745426263213,2.997157715991713,0.3573236238864119,-1.4955776343029878
3.400970697402954,-0.0098384279539747,-0.2831546314414757,0.6484101684191916,3.0010250303976385,0.3577847447646052,-1.4975074702241358
3.4106509685516357,-0.0098508485807204,-0.283462613201948,0.6491245316051693,3.00435556455826,0.3581802561410496,-1.499169718104853
3.4217331409454346,-0.0098693645932916,-0.2840405240800949,0.6504387342788363,3.01041332360896,0.3589041645860575,-1.502192340794216
3.429913282394409,-0.0098872938982133,-0.2845539427441439,0.651614388996415,3.01585430446771,0.3595529255508864,-1.5049074556296889
3.4401931762695312,-0.0099018725135282,-0.2849714121434781,0.6525703339084954,3.020278458005663,0.3600804450008583,-1.5071151615881
3.4503657817840647,-0.0099161216087315,-0.2853794456446588,0.6535046721239022,3.024602614107117,0.3605960419455076,-1.509272967771282
3.460245370864868,-0.0099355988960549,-0.2858894127365383,0.6546815456644062,3.0300736068010945,0.3612467550746574,-1.5120033285325292
3.4708290100097656,-0.0099437334672796,-0.2861223440093008,0.655214924324496,3.032542099188035,0.3615410881496341,-1.5132351360329783
3.482077121734619,-0.0099621037203982,-0.2866961790274596,0.6565198038162556,3.038556763999248,0.3622598904628056,-1.516236258313694
3.4910709857940674,-0.0099698227862665,-0.2869172206629971,0.657025957797968,3.0408992641062493,0.3625392035538128,-1.5174051945123228
3.4998064041137695,-0.0099799303427348,-0.2872066587397599,0.6576887299927101,3.0439665990114584,0.3629049442518957,-1.5189358322033826
3.51045560836792,-0.00999469625323,-0.2876294927745464,0.6586569601723316,3.048447604429235,0.3634392479114323,-1.521171908927827
3.520512104034424,-0.0100042765775256,-0.2879038334105077,0.659285161542968,3.0513549434124734,0.3637859120562412,-1.5226227068615046
3.530003547668464,-0.0100185544279458,-0.2882648256055429,0.6601208973340809,3.055247077139025,0.3642483512392154,-1.5245651965286298
3.5398006439209055,-0.0100250612308219,-0.288499019832483,0.6606480547570168,3.057662462078248,0.3645380067293748,-1.5257702365254442
3.5505669116973877,-0.0100365031261517,-0.2887787836558901,0.6612977876043695,3.060693754496789,0.3648977977264414,-1.5272831554957405
3.560457229614265,-0.0100469031160752,-0.2891244816517604,0.6620802747244445,3.0642908258036776,0.3653283600850505,-1.52907787215932
3.569963216781616,-0.0100515162200043,-0.2892086815213819,0.6622821922977877,3.0652496028935854,0.3654410253127134,-1.529556580045142
3.5801632404327393,-0.0100654338578483,-0.2896551265020575,0.6632953773949701,3.0699143618262994,0.3659989011768507,-1.5318840865770236
3.590050220489502,-0.0100738032800045,-0.2898468690699358,0.6637435509423284,3.072012803979753,0.366247453669188,-1.5329315011262228
3.599886894226074,-0.0100815122282647,-0.2900676141655678,0.6642490258833798,3.0743521530819606,0.3665263926950519,-1.5340988653788594
3.610564470291145,-0.0100834065122619,-0.2901218568474455,0.6643732339341977,3.0749269906283025,0.3665949351430173,-1.5343857164596812
3.6203925609588623,-0.0100926802140062,-0.2903874087044853,0.6649813100783115,3.077741179983768,0.3669304935159623,-1.5357900319664033
3.630096673965454,-0.0101033736763103,-0.2906936155173163,0.6656824804008084,3.080986210779951,0.367317425015587,-1.5374093427915625
3.6425654888153076,-0.0101079396907239,-0.2908723223918299,0.6660825871466525,3.082813657753528,0.3675369968388864,-1.5383209965643072
3.6529271602630615,-0.0101152496381473,-0.2910336834220661,0.6664611879480882,3.084590084958613,0.3677471448980416,-1.5392077210363642
3.6640172004699707,-0.0101185241394627,-0.2911274487488962,0.6666758973444171,3.0855837642670867,0.3678656296470368,-1.5397035794451872
3.6721692085266113,-0.0101242456764198,-0.2913392610169216,0.6671518122101912,3.087762063915566,0.3681270403632091,-1.5407903134470908
3.6805307865142822,-0.0101288804492627,-0.291471982598094,0.6674557263675771,3.0891685877248207,0.3682947531917211,-1.5414921865420528
3.68982195854187,-0.0101414023005332,-0.2917825655002684,0.6681760227090301,3.0925263728269385,0.3686934565540154,-1.5431680282056297
3.7000732421875,-0.0101489408934511,-0.292046435062999,0.6687711436603614,3.0952563774451445,0.3690206575598251,-1.5445300704475011
3.710141897201545,-0.0101562947179232,-0.2922090109709137,0.6691525231930786,3.097045634495098,0.3692323281431511,-1.545423196670125
3.720036029815674,-0.0101580023406384,-0.2923059197289133,0.669365328035334,3.098006279670919,0.3693485547475408,-1.5459023064517732
3.732396364212029,-0.010160079483338,-0.2923173881049621,0.6694006917034914,3.098194162661152,0.369369277473492,-1.545996326708754
3.7423648834228516,-0.0101672931251464,-0.2925239515746964,0.6698736932546447,3.100383221891512,0.3696302988335347,-1.5470886948984337
3.7497918605804443,-0.0101729420141154,-0.2926857082822947,0.670244093600501,3.102097440866673,0.3698347008389211,-1.547944111832253
3.7641022205352783,-0.01017928570635,-0.2928673609088106,0.6706600528714395,3.1040225071737417,0.3700642442569055,-1.548904744276217
3.769943952560425,-0.0101851548816398,-0.2930354258011514,0.6710448981591695,3.105803577336109,0.3702766178334755,-1.5497935208471851
3.779911518096924,-0.0101869037548842,-0.2931335458946185,0.6712604791590824,3.106777091269027,0.370394384744201,-1.550279052769044
3.790079355239868,-0.0101905495402903,-0.2931899029604041,0.6713986294568555,3.1074406513509736,0.3704718215336076,-1.5506104415377937
3.8000526428222656,-0.010194402313111,-0.2933482765951423,0.6717521833304136,3.109052711288374,0.3706657297856575,-1.5514146161309457
3.8101699352264404,-0.010199915309478,-0.2934580940788969,0.6720127500556625,3.110282810927373,0.3708107191789951,-1.5520287152512298
3.8222758769989014,-0.0102001714240458,-0.2935134826547712,0.672130482840589,3.1108034914059424,0.3708744930362506,-1.5522882777238154
3.8304545879364014,-0.0102038864208822,-0.2935718080374512,0.6722731393448491,3.111487896484004,0.3709544130685671,-1.5526300682622
3.840163469314575,-0.0102079196500515,-0.2936873009360905,0.6725376021922616,3.112711834490048,0.3711003549814249,-1.5532408288959338
