iamhaha0123/trajectory_planning/src/other/joint_states.csv
time,joint1,joint2,joint3,joint4,joint5,joint6
0.010553836822509766,4.473415043015905e-05,2.0767397153065303e-05,1.9848669277067188e-05,-2.7806246614581198e-05,8.42670087397579e-06,5.732106429423567e-05
0.020205020904541016,4.464693802486153e-05,2.7563752904136152e-05,1.4625536562284935e-05,-2.844896423859211e-05,1.021575340498515e-05,5.7618991166741296e-05
0.030281543731689453,4.473415043015905e-05,2.0767397153065303e-05,1.9848669277955366e-05,-2.7806246614581198e-05,8.42670087397579e-06,5.732106429245931e-05
0.040640830993652344,4.464693802486153e-05,2.7563752903247973e-05,1.4625536564061292e-05,-2.844896423859211e-05,1.0215753404096972e-05,5.761899116585312e-05
0.05037808418273926,4.473415042927087e-05,2.0767397153065303e-05,1.9848669277955366e-05,-2.7806246614581198e-05,8.42670087397579e-06,5.732106429423567e-05
0.06029176712036133,4.473415042927087e-05,2.0767397153065303e-05,1.9848669277067188e-05,-2.7806246614581198e-05,8.426700874863968e-06,5.732106429245931e-05
0.07030415534973145,4.473415043015905e-05,2.0767397153953482e-05,1.9848669277955366e-05,-2.7806246614581198e-05,8.42670087397579e-06,5.732106429245931e-05
0.08006834983825684,4.464693802486153e-05,2.7563752903247973e-05,1.4625536561396757e-05,-2.844896423859211e-05,1.0215753404096972e-05,5.761899116585312e-05
0.09018754959106445,4.464693802486153e-05,2.7563752903247973e-05,1.4625536563173114e-05,-2.844896423948029e-05,1.0215753404096972e-05,5.761899116585312e-05
0.10006523132324219,4.473415043015905e-05,2.0767397153953482e-05,1.984866927617901e-05,-2.7806246614581198e-05,8.42670087397579e-06,5.732106429245931e-05
0.11017274856567383,4.464693802486153e-05,2.7563752903247973e-05,1.4625536561396757e-05,-2.844896423948029e-05,1.0215753404096972e-05,5.7618991166741296e-05
0.12437653541564941,4.473415042927087e-05,2.0767397153065303e-05,1.984866927617901e-05,-2.7806246614581198e-05,8.426700873087611e-06,5.732106429157113e-05
0.13112688064575195,4.464693802486153e-05,2.7563752903247973e-05,1.4625536562284935e-05,-2.844896423948029e-05,1.0215753404096972e-05,5.7618991167629474e-05
0.14023971557617188,4.473415042927087e-05,2.0767397153953482e-05,1.9848669277067188e-05,-2.7806246614581198e-05,8.42670087397579e-06,5.732106429245931e-05
0.15029454231262207,4.464693802486153e-05,2.7563752903247973e-05,1.4625536561396757e-05,-2.844896423859211e-05,1.0215753404096972e-05,5.7618991166741296e-05
0.16013717651367188,4.464693802486153e-05,2.7563752904136152e-05,1.4625536561396757e-05,-2.844896423859211e-05,1.0215753404096972e-05,5.761899116585312e-05
0.1721208095550537,4.464693802486153e-05,2.7563752903247973e-05,1.4625536562284935e-05,-2.844896423859211e-05,1.0215753404096972e-05,5.7618991166741296e-05
0.18011951446533203,4.464693802486153e-05,2.7563752903247973e-05,1.4625536563173114e-05,-2.844896423859211e-05,1.021575340498515e-05,5.7618991166741296e-05
0.19036483764648438,4.473415042927087e-05,2.0767397153953482e-05,1.9848669277067188e-05,-2.7806246614581198e-05,8.426700873087611e-06,5.732106429423567e-05
0.20147132873535156,4.464693802486153e-05,2.7563752903247973e-05,1.4625536563173114e-05,-2.844896423859211e-05,1.0215753404096972e-05,5.7618991166741296e-05
0.21304988861083984,4.473415042927087e-05,2.0767397153953482e-05,1.9848669277955366e-05,-2.7806246614581198e-05,8.42670087397579e-06,5.732106429157113e-05
0.22180700302124023,4.464693802486153e-05,2.7563752903247973e-05,1.4625536564061292e-05,-2.844896423948029e-05,1.0215753404096972e-05,5.7618991166741296e-05
0.2311391830444336,4.473415042927087e-05,2.0767397153065303e-05,1.9848669277955366e-05,-2.7806246614581198e-05,8.426700873087611e-06,5.732106429245931e-05
0.2402188777923584,4.473415043015905e-05,2.0767397153065303e-05,1.984866927617901e-05,-2.7806246614581198e-05,8.426700873087611e-06,5.732106429334749e-05
0.251323938369751,4.464693802486153e-05,2.7563752904136152e-05,1.4625536562284935e-05,-2.844896423859211e-05,1.0215753404096972e-05,5.761899116585312e-05
0.2662501335144043,4.473415042927087e-05,2.0767397153953482e-05,1.984866927617901e-05,-2.7806246614581198e-05,8.42670087397579e-06,5.732106429423567e-05
0.270113468170166,4.473415043015905e-05,2.0767397153065303e-05,1.9848669277067188e-05,-2.7806246614581198e-05,8.42670087397579e-06,5.732106429423567e-05
0.28034138679504395,4.464693802486153e-05,2.7563752903247973e-05,1.4625536562284935e-05,-2.844896423859211e-05,1.0215753404096972e-05,5.761899116585312e-05
0.29109644889831543,4.473415042927087e-05,2.0767397153953482e-05,1.9848669277067188e-05,-2.7806246614581198e-05,8.426700873087611e-06,5.732106429157113e-05
0.30186915397644043,4.473415042927087e-05,2.0767397153065303e-05,1.9848669277955366e-05,-2.7806246614581198e-05,8.42670087397579e-06,5.732106429157113e-05
0.31012701988220215,4.473415042927087e-05,2.0767397153065303e-05,1.9848669277067188e-05,-2.7806246614581198e-05,8.42670087397579e-06,5.732106429157113e-05
0.32019686698913574,4.464693802486153e-05,2.7563752904136152e-05,1.4625536562284935e-05,-2.844896423859211e-05,1.021575340498515e-05,5.7618991167629474e-05
0.3301823139190674,4.473415042927087e-05,2.0767397153065303e-05,1.9848669277955366e-05,-2.7806246614581198e-05,8.42670087397579e-06,5.732106429423567e-05
0.3401477336883545,4.473415043015905e-05,2.0767397153065303e-05,1.9848669277955366e-05,-2.780624661369302e-05,8.42670087397579e-06,5.732106429334749e-05
0.3500947952270508,4.464693802486153e-05,2.7563752903247973e-05,1.4625536563173114e-05,-2.844896423948029e-05,1.0215753404096972e-05,5.761899116585312e-05
0.3609957695007324,4.473415043015905e-05,2.0767397153065303e-05,1.9848669277067188e-05,-2.7806246614581198e-05,8.42670087397579e-06,5.732106429334749e-05
0.37238192558288574,4.473415043015905e-05,2.0767397153065303e-05,1.984866927617901e-05,-2.7806246614581198e-05,8.42670087397579e-06,5.732106429157113e-05
0.38034534454345703,4.464693802486153e-05,2.7563752904136152e-05,1.4625536561396757e-05,-2.844896423859211e-05,1.021575340498515e-05,5.7618991166741296e-05
0.3904597759246826,4.473415043015905e-05,2.0767397153065303e-05,1.984866927617901e-05,-2.7806246614581198e-05,8.42670087397579e-06,5.732106429334749e-05
0.40022850036621094,4.473415043015905e-05,2.0767397153065303e-05,1.9848669277067188e-05,-2.7806246614581198e-05,8.42670087397579e-06,5.732106429423567e-05
0.41175365447998047,4.473415043015905e-05,2.0767397153065303e-05,1.984866927617901e-05,-2.780624661369302e-05,8.426700873087611e-06,5.732106429423567e-05
0.42073535919189453,4.464693802486153e-05,2.7563752903247973e-05,1.4625536564061292e-05,-2.844896423859211e-05,1.0215753404096972e-05,5.761899116585312e-05
0.430208683013916,4.464693802486153e-05,2.7563752903247973e-05,1.4625536563173114e-05,-2.844896423859211e-05,1.0215753404096972e-05,5.7618991166741296e-05
0.44655847549438477,4.464693802486153e-05,2.7563752904136152e-05,1.4625536562284935e-05,-2.844896423948029e-05,1.0215753404096972e-05,5.7618991166741296e-05
0.4501187801361084,4.464693802486153e-05,2.7563752903247973e-05,1.4625536564061292e-05,-2.844896423859211e-05,1.0215753404096972e-05,5.7618991166741296e-05
0.4604177474975586,4.464693802486153e-05,2.7563752903247973e-05,1.4625536562284935e-05,-2.844896423859211e-05,1.021575340498515e-05,5.761899116585312e-05
0.47236061096191406,4.473415042927087e-05,2.0767397153065303e-05,1.9848669277067188e-05,-2.780624661369302e-05,8.426700873087611e-06,5.732106429157113e-05
0.48070693016052246,4.473415042927087e-05,2.0767397153065303e-05,1.984866927617901e-05,-2.7806246614581198e-05,8.426700873087611e-06,5.732106429245931e-05
0.4902946949005127,4.473415043015905e-05,2.0767397153953482e-05,1.9848669277955366e-05,-2.7806246614581198e-05,8.426700873087611e-06,5.732106429245931e-05
0.5028049945831299,4.473415043015905e-05,2.0767397153953482e-05,1.984866927617901e-05,-2.7806246614581198e-05,8.42670087397579e-06,5.732106429334749e-05
0.5114030838012695,4.464693802486153e-05,2.7563752903247973e-05,1.4625536562284935e-05,-2.844896423859211e-05,1.0215753404096972e-05,5.7618991166741296e-05
0.5204482078552246,4.464693802486153e-05,2.7563752904136152e-05,1.4625536562284935e-05,-2.844896423859211e-05,1.0215753404096972e-05,5.761899116585312e-05
0.530146598815918,4.464693802486153e-05,2.7563752904136152e-05,1.4625536561396757e-05,-2.844896423948029e-05,1.0215753404096972e-05,5.761899116585312e-05
0.5403263568878174,4.464693802486153e-05,2.7563752904136152e-05,1.4625536561396757e-05,-2.844896423859211e-05,1.0215753404096972e-05,5.7618991166741296e-05
0.5515575408935547,4.464693802486153e-05,2.7563752904136152e-05,1.4625536562284935e-05,-2.844896423948029e-05,1.0215753404096972e-05,5.7618991167629474e-05
0.5618486404418945,4.473415043015905e-05,2.0767397153065303e-05,1.9848669278843545e-05,-2.7806246614581198e-05,8.426700873087611e-06,5.732106429245931e-05
0.5745625495910645,4.473415042927087e-05,2.0767397153953482e-05,1.9848669277067188e-05,-2.780624661369302e-05,8.42670087397579e-06,5.732106429157113e-05
0.5804431438446045,4.464693802486153e-05,2.7563752904136152e-05,1.4625536563173114e-05,-2.844896423948029e-05,1.0215753404096972e-05,5.761899116585312e-05
0.5902314186096191,4.473415043015905e-05,2.0767397153065303e-05,1.9848669277067188e-05,-2.7806246614581198e-05,8.42670087397579e-06,5.732106429245931e-05
0.6002488136291504,4.464693802486153e-05,2.7563752904136152e-05,1.4625536564061292e-05,-2.844896423859211e-05,1.0215753404096972e-05,5.761899116585312e-05
0.6108136177062988,4.473415042927087e-05,2.0767397153065303e-05,1.9848669277067188e-05,-2.780624661369302e-05,8.42670087397579e-06,5.732106429512385e-05
0.6221785545349121,4.473415043015905e-05,2.0767397153065303e-05,1.9848669277955366e-05,-2.7806246614581198e-05,8.426700873087611e-06,5.732106429245931e-05
0.6301875114440918,4.473415043015905e-05,2.0767397153065303e-05,1.984866927617901e-05,-2.780624661369302e-05,8.42670087397579e-06,5.732106429245931e-05
0.6404635906219482,4.464693802486153e-05,2.7563752904136152e-05,1.4625536562284935e-05,-2.844896423859211e-05,1.0215753404096972e-05,5.7618991167629474e-05
0.6541285514831543,4.464693802486153e-05,2.7563752903247973e-05,1.4625536561396757e-05,-2.844896423948029e-05,1.0215753404096972e-05,5.7618991166741296e-05
0.6602809429168701,4.473415042927087e-05,2.0767397153065303e-05,1.9848669277067188e-05,-2.7806246614581198e-05,8.426700873087611e-06,5.732106429245931e-05
0.6703288555145264,4.473415043015905e-05,2.0767397153065303e-05,1.984866927617901e-05,-2.7806246614581198e-05,8.42670087397579e-06,5.732106429334749e-05
0.6804709434509277,4.473415042927087e-05,2.0767397153065303e-05,1.9848669277067188e-05,-2.780624661369302e-05,8.42670087397579e-06,5.732106429245931e-05
0.691260814666748,4.473415042927087e-05,2.0767397153953482e-05,1.9848669278843545e-05,-2.7806246614581198e-05,8.42670087397579e-06,5.732106429512385e-05
0.7033679485321045,4.464693802486153e-05,2.7563752904136152e-05,1.4625536563173114e-05,-2.844896423859211e-05,1.0215753404096972e-05,5.7618991166741296e-05
0.7104926109313965,4.464693802486153e-05,2.7563752904136152e-05,1.4625536563173114e-05,-2.844896423948029e-05,1.0215753404096972e-05,5.7618991166741296e-05
0.7200262546539307,4.473415042927087e-05,2.0767397153065303e-05,1.9848669277067188e-05,-2.7806246614581198e-05,8.426700873087611e-06,5.732106429334749e-05
0.730668306350708,4.464693802486153e-05,2.7563752904136152e-05,1.4625536564061292e-05,-2.844896423859211e-05,1.0215753404096972e-05,5.761899116585312e-05
0.7401688098907471,4.464693802486153e-05,2.7563752904136152e-05,1.4625536562284935e-05,-2.844896423859211e-05,1.0215753404096972e-05,5.7618991166741296e-05
0.7502310276031494,4.464693802486153e-05,2.7563752903247973e-05,1.4625536562284935e-05,-2.844896423859211e-05,1.021575340498515e-05,5.761899116585312e-05
0.7654991149902344,4.473415043015905e-05,2.0767397153953482e-05,1.9848669277067188e-05,-2.780624661369302e-05,8.426700873087611e-06,5.732106429423567e-05
0.7723145484924316,4.473415043015905e-05,2.0767397153953482e-05,1.9848669277955366e-05,-2.7806246614581198e-05,8.42670087397579e-06,5.732106429423567e-05
0.780731201171875,4.473415042927087e-05,2.0767397153065303e-05,1.9848669277067188e-05,-2.7806246614581198e-05,8.42670087397579e-06,5.732106429245931e-05
0.7901151180267334,4.473415042927087e-05,2.0767397153065303e-05,1.9848669277067188e-05,-2.7806246614581198e-05,8.42670087397579e-06,5.732106429245931e-05
0.8026797771453857,4.473415043015905e-05,2.0767397153065303e-05,1.9848669277955366e-05,-2.780624661369302e-05,8.42670087397579e-06,5.732106429245931e-05
0.8104050159454346,4.464693802486153e-05,2.7563752904136152e-05,1.4625536561396757e-05,-2.844896423859211e-05,1.0215753404096972e-05,5.7618991167629474e-05
0.8210294246673584,4.464693802486153e-05,2.7563752903247973e-05,1.4625536562284935e-05,-2.844896423948029e-05,1.0215753404096972e-05,5.7618991166741296e-05
0.8302686214447021,4.464693802486153e-05,2.7563752903247973e-05,1.462553656494947e-05,-2.844896423859211e-05,1.0215753404096972e-05,5.7618991166741296e-05
0.8406648635864258,4.464693802486153e-05,2.7563752903247973e-05,1.4625536563173114e-05,-2.844896423859211e-05,1.0215753404096972e-05,5.7618991167629474e-05
0.8502659797668457,4.464693802486153e-05,2.7563752904136152e-05,1.4625536561396757e-05,-2.844896423859211e-05,1.0215753404096972e-05,5.7618991166741296e-05
0.8606178760528564,4.464693802486153e-05,2.7563752903247973e-05,1.4625536562284935e-05,-2.844896423859211e-05,1.0215753404096972e-05,5.7618991166741296e-05
0.8723886013031006,4.464693802486153e-05,2.7563752904136152e-05,1.4625536564061292e-05,-2.844896423948029e-05,1.0215753404096972e-05,5.7618991166741296e-05
0.8805427551269531,4.473415042927087e-05,2.0767397153953482e-05,1.9848669277067188e-05,-2.7806246614581198e-05,8.426700873087611e-06,5.732106429423567e-05
0.8903405666351318,4.464693802486153e-05,2.7563752903247973e-05,1.4625536561396757e-05,-2.844896423948029e-05,1.0215753404096972e-05,5.7618991166741296e-05
0.9006175994873047,4.464693802486153e-05,2.7563752904136152e-05,1.4625536562284935e-05,-2.844896423948029e-05,1.021575340498515e-05,5.7618991166741296e-05
0.910630464553833,4.473415042927087e-05,2.0767397153065303e-05,1.9848669277067188e-05,-2.7806246614581198e-05,8.42670087397579e-06,5.732106429334749e-05
0.9265515804290771,4.473415042927087e-05,2.0767397153953482e-05,1.9848669277067188e-05,-2.7806246614581198e-05,8.426700873087611e-06,5.732106429334749e-05
0.9300706386566162,4.473415042927087e-05,2.0767397153953482e-05,1.9848669277067188e-05,-2.7806246614581198e-05,8.42670087397579e-06,5.732106429334749e-05
0.9401998519897461,4.464693802486153e-05,2.7563752904136152e-05,1.4625536561396757e-05,-2.844896423859211e-05,1.021575340498515e-05,5.7618991166741296e-05
0.9507675170898438,4.464693802486153e-05,2.7563752904136152e-05,1.4625536562284935e-05,-2.844896423859211e-05,1.0215753404096972e-05,5.7618991166741296e-05
0.9617102146148682,4.464693802486153e-05,2.7563752904136152e-05,1.4625536561396757e-05,-2.844896423859211e-05,1.021575340498515e-05,5.7618991166741296e-05
0.9703400135040283,4.464693802486153e-05,2.7563752904136152e-05,1.4625536561396757e-05,-2.844896423859211e-05,1.0215753404096972e-05,5.7618991166741296e-05
0.9801487922668457,4.473415042927087e-05,2.0767397153065303e-05,1.9848669277067188e-05,-2.7806246614581198e-05,8.426700873087611e-06,5.732106429334749e-05
0.9903879165649414,4.473415043015905e-05,2.0767397153065303e-05,1.9848669277955366e-05,-2.7806246614581198e-05,8.42670087397579e-06,5.732106429334749e-05
1.0000452995300293,4.473415042927087e-05,2.0767397153953482e-05,1.9848669278843545e-05,-2.7806246614581198e-05,8.426700873087611e-06,5.732106429245931e-05
1.0233712196350098,4.473415042927087e-05,2.0767397153953482e-05,1.9848669277067188e-05,-2.7806246614581198e-05,8.42670087397579e-06,5.732106429334749e-05
1.0301852226257324,4.473415043015905e-05,2.0767397153065303e-05,1.9848669277067188e-05,-2.7806246614581198e-05,8.42670087397579e-06,5.732106429245931e-05
1.0414316654205322,4.473415042927087e-05,2.0767397153953482e-05,1.9848669277955366e-05,-2.7806246614581198e-05,8.42670087397579e-06,5.732106429245931e-05
1.051257610321045,4.464693802486153e-05,2.7563752903247973e-05,1.4625536562284935e-05,-2.844896423859211e-05,1.0215753404096972e-05,5.7618991167629474e-05
1.065140724182129,4.473415043015905e-05,2.0767397153065303e-05,1.984866927617901e-05,-2.7806246614581198e-05,8.42670087397579e-06,5.732106429334749e-05
1.070136308670044,4.473415043015905e-05,2.0767397153065303e-05,1.9848669277067188e-05,-2.7806246614581198e-05,8.42670087397579e-06,5.732106429245931e-05
1.0806751251220703,4.464693802486153e-05,2.7563752903247973e-05,1.4625536561396757e-05,-2.844896423948029e-05,1.021575340498515e-05,5.7618991166741296e-05
1.0903491973876953,4.473415042927087e-05,2.0767397153065303e-05,1.9848669277955366e-05,-2.7806246614581198e-05,8.42670087397579e-06,5.732106429423567e-05
1.100599765777588,4.464693802486153e-05,2.7563752903247973e-05,1.4625536561396757e-05,-2.844896423948029e-05,1.0215753404096972e-05,5.7618991166741296e-05
1.1158671379089355,4.464693802486153e-05,2.7563752903247973e-05,1.4625536562284935e-05,-2.844896423859211e-05,1.021575340498515e-05,5.7618991166741296e-05
1.120267391204834,4.473415042927087e-05,2.0767397153065303e-05,1.9848669277067188e-05,-2.7806246614581198e-05,8.426700873087611e-06,5.732106429245931e-05
1.1325664520263672,4.473415043015905e-05,2.0767397153065303e-05,1.9848669277955366e-05,-2.7806246614581198e-05,8.42670087397579e-06,5.732106429245931e-05
1.140556812286377,4.464693802486153e-05,2.7563752903247973e-05,1.4625536562284935e-05,-2.844896423859211e-05,1.021575340498515e-05,5.7618991166741296e-05
1.1502490043640137,4.464693802486153e-05,2.7563752904136152e-05,1.4625536562284935e-05,-2.844896423948029e-05,1.021575340498515e-05,5.7618991166741296e-05
1.1601688861846924,4.464693802486153e-05,2.7563752904136152e-05,1.4625536562284935e-05,-2.844896423859211e-05,1.0215753404096972e-05,5.761899116585312e-05
1.1703698635101318,4.473415042927087e-05,2.0767397153065303e-05,1.9848669277067188e-05,-2.7806246614581198e-05,8.42670087397579e-06,5.732106429423567e-05
1.1809086799621582,4.464693802486153e-05,2.7563752904136152e-05,1.4625536561396757e-05,-2.844896423948029e-05,1.0215753404096972e-05,5.7618991166741296e-05
1.1909997463226318,4.473415042927087e-05,2.0767397153065303e-05,1.984866927617901e-05,-2.780624661369302e-05,8.42670087397579e-06,5.732106429423567e-05
1.2004928588867188,4.473415043015905e-05,2.0767397153065303e-05,1.9848669277955366e-05,-2.7806246614581198e-05,8.42670087397579e-06,5.732106429245931e-05
1.2103862762451172,4.473415042927087e-05,2.0767397153065303e-05,1.9848669277067188e-05,-2.7806246614581198e-05,8.426700873087611e-06,5.732106429245931e-05
1.2204434871673584,4.473415042927087e-05,2.0767397153065303e-05,1.9848669277067188e-05,-2.7806246614581198e-05,8.42670087397579e-06,5.732106429245931e-05
1.2336022853851318,4.473415043015905e-05,2.0767397153065303e-05,1.984866927617901e-05,-2.7806246614581198e-05,8.42670087397579e-06,5.732106429334749e-05
1.2404158115386963,4.473415042927087e-05,2.0767397153953482e-05,1.9848669277067188e-05,-2.7806246614581198e-05,8.42670087397579e-06,5.732106429157113e-05
1.2502944469451904,4.464693802486153e-05,2.7563752904136152e-05,1.4625536562284935e-05,-2.844896423859211e-05,1.0215753404096972e-05,5.7618991167629474e-05
1.26027512550354,4.473415043015905e-05,2.0767397153065303e-05,1.9848669277067188e-05,-2.7806246614581198e-05,8.42670087397579e-06,5.732106429423567e-05
1.270223617553711,4.473415043015905e-05,2.0767397153065303e-05,1.984866927617901e-05,-2.7806246614581198e-05,8.42670087397579e-06,5.732106429334749e-05
1.2802162170410156,4.464693802486153e-05,2.7563752903247973e-05,1.4625536562284935e-05,-2.844896423948029e-05,1.0215753404096972e-05,5.7618991166741296e-05
1.2909066677093506,4.464693802486153e-05,2.7563752903247973e-05,1.4625536563173114e-05,-2.844896423859211e-05,1.0215753404096972e-05,5.7618991166741296e-05
1.3030927181243896,4.464693802486153e-05,2.7563752904136152e-05,1.4625536562284935e-05,-2.844896423859211e-05,1.0215753404096972e-05,5.7618991166741296e-05
1.3128795623779297,4.464693802486153e-05,2.7563752903247973e-05,1.4625536562284935e-05,-2.844896423859211e-05,1.0215753404096972e-05,5.7618991166741296e-05
1.3204567432403564,4.464693802486153e-05,2.7563752903247973e-05,1.4625536562284935e-05,-2.844896423859211e-05,1.021575340498515e-05,5.7618991166741296e-05
1.3300864696502686,4.473415042927087e-05,2.0767397153065303e-05,1.9848669277955366e-05,-2.7806246614581198e-05,8.42670087397579e-06,5.732106429512385e-05
1.3403573036193848,4.473415042927087e-05,2.0767397153065303e-05,1.9848669277955366e-05,-2.7806246614581198e-05,8.42670087397579e-06,5.732106429423567e-05
1.350395679473877,4.473415043015905e-05,2.0767397153065303e-05,1.984866927617901e-05,-2.7806246614581198e-05,8.42670087397579e-06,5.732106429423567e-05
1.360245943069458,4.473415043015905e-05,2.0767397153065303e-05,1.9848669277955366e-05,-2.780624661369302e-05,8.42670087397579e-06,5.732106429423567e-05
1.3722820281982422,4.473415042927087e-05,2.0767397153953482e-05,1.9848669277067188e-05,-2.7806246614581198e-05,8.42670087397579e-06,5.732106429245931e-05
1.3802285194396973,4.464693802486153e-05,2.7563752904136152e-05,1.4625536562284935e-05,-2.844896423859211e-05,1.0215753404096972e-05,5.7618991166741296e-05
1.390876054763794,4.473415042927087e-05,2.0767397153065303e-05,1.9848669277955366e-05,-2.7806246614581198e-05,8.42670087397579e-06,5.732106429157113e-05
1.4003071784973145,4.473415043015905e-05,2.0767397153065303e-05,1.9848669277067188e-05,-2.7806246614581198e-05,8.426700873087611e-06,5.732106429245931e-05
1.4103055000305176,4.464693802486153e-05,2.7563752903247973e-05,1.4625536562284935e-05,-2.844896423948029e-05,1.0215753404096972e-05,5.7618991166741296e-05
1.4241087436676025,4.473415043015905e-05,2.0767397153065303e-05,1.984866927617901e-05,-2.780624661369302e-05,8.42670087397579e-06,5.732106429512385e-05
1.4313571453094482,4.473415043015905e-05,2.0767397153065303e-05,1.984866927617901e-05,-2.7806246614581198e-05,8.42670087397579e-06,5.732106429423567e-05
1.4402611255645752,4.473415042927087e-05,2.0767397153953482e-05,1.9848669277067188e-05,-2.7806246614581198e-05,8.42670087397579e-06,5.732106429157113e-05
1.450819730758667,4.464693802486153e-05,2.7563752903247973e-05,1.4625536563173114e-05,-2.844896423948029e-05,1.0215753404096972e-05,5.7618991166741296e-05
1.4655208587646484,4.464693802486153e-05,2.7563752903247973e-05,1.4625536562284935e-05,-2.844896423859211e-05,1.0215753404096972e-05,5.761899116585312e-05
1.471531629562378,4.473415042927087e-05,2.0767397153065303e-05,1.984866927617901e-05,-2.7806246614581198e-05,8.42670087397579e-06,5.732106429245931e-05
1.4815459251403809,4.464693802486153e-05,2.7563752903247973e-05,1.4625536562284935e-05,-2.844896423859211e-05,1.021575340498515e-05,5.761899116585312e-05
1.4907543659210205,4.473415042927087e-05,2.0767397153953482e-05,1.9848669277067188e-05,-2.7806246614581198e-05,8.42670087397579e-06,5.732106429334749e-05
1.5001351833343506,4.464693802486153e-05,2.7563752903247973e-05,1.4625536563173114e-05,-2.844896423948029e-05,1.0215753404096972e-05,5.7618991166741296e-05
1.5104429721832275,4.473415043015905e-05,2.0767397153065303e-05,1.984866927617901e-05,-2.7806246614581198e-05,8.42670087397579e-06,5.732106429245931e-05
1.5201983451843262,4.473415042927087e-05,2.0767397153065303e-05,1.9848669277067188e-05,-2.780624661369302e-05,8.42670087397579e-06,5.732106429512385e-05
1.5326955318450928,4.473415042927087e-05,2.0767397153953482e-05,1.9848669277067188e-05,-2.7806246614581198e-05,8.42670087397579e-06,5.732106429512385e-05
1.5407946109771729,4.464693802486153e-05,2.7563752903247973e-05,1.4625536562284935e-05,-2.844896423859211e-05,1.0215753404096972e-05,5.761899116585312e-05
1.5502443313598633,4.464693802486153e-05,2.7563752903247973e-05,1.4625536562284935e-05,-2.844896423948029e-05,1.0215753404096972e-05,5.761899116585312e-05
1.5630347728729248,4.473415042927087e-05,2.0767397153065303e-05,1.9848669277067188e-05,-2.7806246614581198e-05,8.42670087397579e-06,5.732106429334749e-05
1.5701000690460205,4.473415043015905e-05,2.0767397153065303e-05,1.984866927617901e-05,-2.7806246614581198e-05,8.426700873087611e-06,5.732106429512385e-05
1.5800495147705078,4.473415042927087e-05,2.0767397153065303e-05,1.9848669274402653e-05,-2.7806246614581198e-05,8.426700873087611e-06,5.732106429423567e-05
1.5901055335998535,4.473415043015905e-05,2.0767397153953482e-05,1.9848669277067188e-05,-2.7806246614581198e-05,8.42670087397579e-06,5.732106429423567e-05
1.6002674102783203,4.473415043015905e-05,2.0767397153065303e-05,1.9848669277067188e-05,-2.780624661369302e-05,8.42670087397579e-06,5.732106429512385e-05
1.610168218612671,4.473415043015905e-05,2.0767397153065303e-05,1.9848669277955366e-05,-2.780624661369302e-05,8.42670087397579e-06,5.732106429423567e-05
1.62019681930542,4.473415043015905e-05,2.0767397153953482e-05,1.984866927617901e-05,-2.7806246614581198e-05,8.42670087397579e-06,5.732106429334749e-05
1.632676601409912,4.464693802486153e-05,2.7563752904136152e-05,1.4625536563173114e-05,-2.844896423859211e-05,1.021575340498515e-05,5.761899116585312e-05
1.640221357345581,4.464693802486153e-05,2.7563752904136152e-05,1.4625536562284935e-05,-2.844896423859211e-05,1.021575340498515e-05,5.7618991166741296e-05
1.6510744094848633,4.473415042927087e-05,2.0767397153065303e-05,1.9848669277067188e-05,-2.7806246614581198e-05,8.42670087397579e-06,5.732106429245931e-05
1.660588264465332,4.464693802486153e-05,2.7563752904136152e-05,1.4625536562284935e-05,-2.844896423859211e-05,1.021575340498515e-05,5.7618991166741296e-05
1.6702909469604492,4.473415043015905e-05,2.0767397153065303e-05,1.9848669277955366e-05,-2.7806246614581198e-05,8.42670087397579e-06,5.732106429245931e-05
1.6807990074157715,4.464693802486153e-05,2.7563752904136152e-05,1.4625536562284935e-05,-2.844896423948029e-05,1.021575340498515e-05,5.7618991166741296e-05
1.6905381679534912,4.473415043015905e-05,2.0767397153065303e-05,1.9848669277067188e-05,-2.7806246614581198e-05,8.426700873087611e-06,5.732106429334749e-05
1.7061796188354492,4.473415043015905e-05,2.0767397153953482e-05,1.9848669277067188e-05,-2.780624661369302e-05,8.42670087397579e-06,5.732106429423567e-05
1.7100574970245361,4.473415043015905e-05,2.0767397153065303e-05,1.9848669277067188e-05,-2.7806246614581198e-05,8.426700873087611e-06,5.732106429334749e-05
1.7236180305480957,4.473415043015905e-05,2.0767397153065303e-05,1.9848669274402653e-05,-2.7806246614581198e-05,8.42670087397579e-06,5.732106429512385e-05
1.7300515174865723,4.473415042927087e-05,2.0767397153065303e-05,1.9848669277955366e-05,-2.7806246614581198e-05,8.426700873087611e-06,5.732106429423567e-05
1.7405970096588135,4.473415042927087e-05,2.0767397153065303e-05,1.984866927617901e-05,-2.7806246614581198e-05,8.42670087397579e-06,5.732106429423567e-05
1.7503211498260498,4.464693802486153e-05,2.7563752903247973e-05,1.462553656494947e-05,-2.844896423859211e-05,1.0215753404096972e-05,5.761899116585312e-05
1.7634942531585693,4.464693802486153e-05,2.7563752903247973e-05,1.4625536563173114e-05,-2.844896423859211e-05,1.021575340498515e-05,5.761899116585312e-05
1.7704977989196777,4.473415042927087e-05,2.0767397153065303e-05,1.9848669277067188e-05,-2.7806246614581198e-05,8.42670087397579e-06,5.732106429423567e-05
1.780355453491211,4.473415042927087e-05,2.0767397153065303e-05,1.984866927617901e-05,-2.7806246614581198e-05,8.42670087397579e-06,5.732106429334749e-05
1.790384292602539,4.473415042927087e-05,2.0767397153065303e-05,1.9848669277067188e-05,-2.7806246614581198e-05,8.42670087397579e-06,5.732106429423567e-05
1.8014118671417236,4.464693802486153e-05,2.7563752904136152e-05,1.4625536561396757e-05,-2.844896423859211e-05,1.0215753404096972e-05,5.761899116585312e-05
1.812852382659912,4.464693802486153e-05,2.7563752903247973e-05,1.4625536562284935e-05,-2.844896423948029e-05,1.021575340498515e-05,5.761899116585312e-05
1.820265531539917,4.473415043015905e-05,2.0767397153065303e-05,1.9848669277955366e-05,-2.780624661369302e-05,8.42670087397579e-06,5.732106429245931e-05
1.830432415008545,4.464693802486153e-05,2.7563752904136152e-05,1.4625536562284935e-05,-2.844896423859211e-05,1.021575340498515e-05,5.7618991166741296e-05
1.8404624462127686,4.464693802486153e-05,2.7563752903247973e-05,1.4625536561396757e-05,-2.844896423948029e-05,1.0215753404096972e-05,5.7618991167629474e-05
1.854656457901001,4.473415042927087e-05,2.0767397153065303e-05,1.9848669277955366e-05,-2.7806246614581198e-05,8.42670087397579e-06,5.732106429334749e-05
1.860572338104248,4.464693802486153e-05,2.7563752904136152e-05,1.4625536562284935e-05,-2.844896423859211e-05,1.0215753404096972e-05,5.7618991167629474e-05
1.87062668800354,4.464693802486153e-05,2.7563752903247973e-05,1.4625536562284935e-05,-2.844896423859211e-05,1.021575340498515e-05,5.761899116585312e-05
1.8805041313171387,4.464693802486153e-05,2.7563752904136152e-05,1.4625536561396757e-05,-2.844896423948029e-05,1.0215753404096972e-05,5.7618991166741296e-05
1.890617847442627,4.473415042927087e-05,2.0767397153953482e-05,1.9848669277955366e-05,-2.7806246614581198e-05,8.42670087397579e-06,5.732106429157113e-05
1.902550220489502,4.464693802486153e-05,2.7563752904136152e-05,1.4625536561396757e-05,-2.844896423859211e-05,1.0215753404096972e-05,5.7618991166741296e-05
1.91160249710083,4.464693802486153e-05,2.7563752903247973e-05,1.4625536562284935e-05,-2.844896423948029e-05,1.0215753404096972e-05,5.7618991166741296e-05
1.9203534126281738,4.473415042927087e-05,2.0767397153953482e-05,1.9848669277067188e-05,-2.7806246614581198e-05,8.42670087397579e-06,5.732106429512385e-05
1.930375099182129,4.473415043015905e-05,2.0767397153065303e-05,1.9848669277067188e-05,-2.7806246614581198e-05,8.42670087397579e-06,5.732106429157113e-05
1.941615104675293,4.473415043015905e-05,2.0767397153065303e-05,1.9848669277955366e-05,-2.780624661369302e-05,8.426700873087611e-06,5.732106429334749e-05
1.9502675533294678,4.464693802486153e-05,2.7563752903247973e-05,1.4625536562284935e-05,-2.844896423859211e-05,1.0215753404096972e-05,5.7618991166741296e-05
1.9601993560791016,4.473415042927087e-05,2.0767397153065303e-05,1.9848669277955366e-05,-2.780624661369302e-05,8.426700873087611e-06,5.732106429423567e-05
1.970125675201416,4.473415043015905e-05,2.0767397153065303e-05,1.9848669277067188e-05,-2.7806246614581198e-05,8.42670087397579e-06,5.732106429423567e-05
1.9804363250732422,4.464693802486153e-05,2.7563752903247973e-05,1.4625536564061292e-05,-2.844896423859211e-05,1.0215753404096972e-05,5.7618991166741296e-05
1.9902174472808838,4.473415042927087e-05,2.0767397153065303e-05,1.9848669277067188e-05,-2.780624661369302e-05,8.42670087397579e-06,5.732106429245931e-05
2.00054669380188,4.473415042927087e-05,2.0767397153065303e-05,1.984866927617901e-05,-2.7806246614581198e-05,8.426700873087611e-06,5.732106429334749e-05
2.0104568004608154,4.464693802486153e-05,2.7563752904136152e-05,1.4625536562284935e-05,-2.844896423859211e-05,1.021575340498515e-05,5.761899116585312e-05
2.021796464920044,4.473415043015905e-05,2.0767397153065303e-05,1.9848669277067188e-05,-2.7806246614581198e-05,8.426700873087611e-06,5.732106429245931e-05
2.03131365776062,4.464693802486153e-05,2.7563752903247973e-05,1.4625536561396757e-05,-2.844896423859211e-05,1.0215753404096972e-05,5.7618991166741296e-05
2.041104316711426,4.464693802486153e-05,2.7563752904136152e-05,1.4625536561396757e-05,-2.844896423948029e-05,1.0215753404096972e-05,5.7618991166741296e-05
2.0501339435577393,4.464693802486153e-05,2.7563752903247973e-05,1.4625536562284935e-05,-2.844896423859211e-05,1.0215753404096972e-05,5.761899116585312e-05
2.0604348182678223,4.473415043015905e-05,2.0767397153953482e-05,1.984866927617901e-05,-2.780624661369302e-05,8.42670087397579e-06,5.732106429512385e-05
2.070380210876465,4.464693802486153e-05,2.7563752903247973e-05,1.4625536561396757e-05,-2.844896423859211e-05,1.0215753404096972e-05,5.7618991166741296e-05
2.0804860591888428,4.473415043015905e-05,2.0767397153953482e-05,1.9848669277067188e-05,-2.780624661369302e-05,8.426700873087611e-06,5.732106429334749e-05
2.090219736099243,4.473415042927087e-05,2.0767397153953482e-05,1.9848669277955366e-05,-2.7806246614581198e-05,8.42670087397579e-06,5.732106429334749e-05
2.100374698638916,4.464693802486153e-05,2.7563752904136152e-05,1.4625536563173114e-05,-2.844896423948029e-05,1.0215753404096972e-05,5.761899116585312e-05
2.111565351486206,4.464693802486153e-05,2.7563752903247973e-05,1.4625536562284935e-05,-2.844896423859211e-05,1.021575340498515e-05,5.761899116585312e-05
2.1201822757720947,4.464693802486153e-05,2.7563752903247973e-05,1.4625536562284935e-05,-2.844896423948029e-05,1.021575340498515e-05,5.761899116585312e-05
2.1306254863739014,4.464693802486153e-05,2.7563752903247973e-05,1.4625536562284935e-05,-2.844896423859211e-05,1.0215753404096972e-05,5.761899116585312e-05
2.140652656555176,4.473415042927087e-05,2.0767397153953482e-05,1.9848669277067188e-05,-2.7806246614581198e-05,8.42670087397579e-06,5.732106429334749e-05
2.150236129760742,4.473415042927087e-05,2.0767397153953482e-05,1.9848669277067188e-05,-2.7806246614581198e-05,8.42670087397579e-06,5.732106429334749e-05
2.1614842414855957,4.464693802486153e-05,2.7563752903247973e-05,1.4625536564061292e-05,-2.844896423859211e-05,1.021575340498515e-05,5.7618991166741296e-05
2.1715922355651855,4.464693802486153e-05,2.7563752904136152e-05,1.4625536562284935e-05,-2.844896423948029e-05,1.0215753404096972e-05,5.7618991166741296e-05
2.1803839206695557,4.464693802486153e-05,2.7563752904136152e-05,1.4625536562284935e-05,-2.844896423859211e-05,1.0215753404096972e-05,5.7618991166741296e-05
2.19036865234375,4.464693802486153e-05,2.7563752904136152e-05,1.4625536562284935e-05,-2.844896423859211e-05,1.021575340498515e-05,5.7618991166741296e-05
2.200124979019165,4.473415042927087e-05,2.0767397153953482e-05,1.9848669277067188e-05,-2.7806246614581198e-05,8.42670087397579e-06,5.732106429334749e-05
2.2132866382598877,4.464693802486153e-05,2.7563752903247973e-05,1.4625536561396757e-05,-2.844896423859211e-05,1.0215753404096972e-05,5.7618991166741296e-05
2.221372365951538,4.464693802486153e-05,2.7563752903247973e-05,1.4625536562284935e-05,-2.844896423859211e-05,1.021575340498515e-05,5.7618991166741296e-05
2.2304539680480957,4.464693802486153e-05,2.7563752904136152e-05,1.4625536562284935e-05,-2.844896423859211e-05,1.0215753404096972e-05,5.761899116585312e-05
2.2401111125946045,4.464693802486153e-05,2.7563752903247973e-05,1.4625536562284935e-05,-2.844896423948029e-05,1.0215753404096972e-05,5.7618991166741296e-05
2.251477003097534,4.473415043015905e-05,2.0767397153065303e-05,1.9848669277067188e-05,-2.7806246614581198e-05,8.42670087397579e-06,5.732106429245931e-05
2.2606122493743896,4.464693802486153e-05,2.7563752904136152e-05,1.4625536562284935e-05,-2.844896423859211e-05,1.021575340498515e-05,5.7618991166741296e-05
2.274768352508545,4.464693802486153e-05,2.7563752904136152e-05,1.4625536562284935e-05,-2.844896423948029e-05,1.021575340498515e-05,5.7618991166741296e-05
2.2833986282348633,4.464693802486153e-05,2.7563752903247973e-05,1.4625536562284935e-05,-2.844896423859211e-05,1.0215753404096972e-05,5.7618991166741296e-05
2.293306350708008,4.464693802486153e-05,2.7563752903247973e-05,1.4625536562284935e-05,-2.844896423948029e-05,1.0215753404096972e-05,5.761899116585312e-05
2.3023252487182617,4.473415043015905e-05,2.0767397153953482e-05,1.9848669277067188e-05,-2.7806246614581198e-05,8.42670087397579e-06,5.732106429157113e-05
2.3104279041290283,4.464693802486153e-05,2.7563752904136152e-05,1.4625536562284935e-05,-2.844896423859211e-05,1.0215753404096972e-05,5.761899116585312e-05
2.324090003967285,4.473415043015905e-05,2.0767397153953482e-05,1.984866927617901e-05,-2.7806246614581198e-05,8.42670087397579e-06,5.732106429423567e-05
2.330108404159546,4.464693802486153e-05,2.7563752904136152e-05,1.4625536562284935e-05,-2.844896423948029e-05,1.0215753404096972e-05,5.7618991167629474e-05
2.3400840759277344,4.464693802486153e-05,2.7563752904136152e-05,1.4625536563173114e-05,-2.844896423859211e-05,1.0215753404096972e-05,5.7618991167629474e-05
2.350243330001831,4.464693802486153e-05,2.7563752904136152e-05,1.4625536562284935e-05,-2.844896423948029e-05,1.0215753404096972e-05,5.761899116585312e-05
2.3640851974487305,4.464693802486153e-05,2.7563752904136152e-05,1.4625536562284935e-05,-2.844896423859211e-05,1.0215753404096972e-05,5.761899116585312e-05
2.3701272010803223,4.473415042927087e-05,2.0767397153065303e-05,1.984866927617901e-05,-2.7806246614581198e-05,8.42670087397579e-06,5.732106429245931e-05
2.38312029838562,4.473415042927087e-05,2.0767397153065303e-05,1.9848669277955366e-05,-2.780624661369302e-05,8.426700873087611e-06,5.732106429334749e-05
2.3901286125183105,4.473415042927087e-05,2.0767397153953482e-05,1.9848669277067188e-05,-2.7806246614581198e-05,8.42670087397579e-06,5.732106429334749e-05
2.400151252746582,4.473415042927087e-05,2.0767397153065303e-05,1.984866927617901e-05,-2.7806246614581198e-05,8.426700873087611e-06,5.732106429512385e-05
2.4113402366638184,4.464693802486153e-05,2.7563752904136152e-05,1.4625536561396757e-05,-2.844896423859211e-05,1.021575340498515e-05,5.7618991166741296e-05
2.4205195903778076,4.464693802486153e-05,2.7563752904136152e-05,1.4625536562284935e-05,-2.844896423948029e-05,1.0215753404096972e-05,5.761899116585312e-05
2.433248996734619,4.464693802486153e-05,2.7563752904136152e-05,1.4625536563173114e-05,-2.844896423859211e-05,1.0215753404096972e-05,5.761899116585312e-05
2.4411802291870117,4.464693802486153e-05,2.7563752903247973e-05,1.4625536563173114e-05,-2.844896423948029e-05,1.0215753404096972e-05,5.7618991166741296e-05
2.4503188133239746,4.473415043015905e-05,2.0767397153953482e-05,1.9848669277067188e-05,-2.7806246614581198e-05,8.42670087397579e-06,5.732106429423567e-05
2.462404251098633,4.473415043015905e-05,2.0767397153065303e-05,1.9848669277067188e-05,-2.7806246614581198e-05,8.42670087397579e-06,5.732106429334749e-05
2.470388650894165,4.473415042927087e-05,2.0767397153065303e-05,1.9848669277955366e-05,-2.7806246614581198e-05,8.42670087397579e-06,5.732106429334749e-05
2.4824180603027344,4.473415042927087e-05,2.0767397153065303e-05,1.984866927617901e-05,-2.7806246614581198e-05,8.42670087397579e-06,5.732106429245931e-05
2.493712902069092,4.464693802486153e-05,2.7563752903247973e-05,1.4625536561396757e-05,-2.844896423948029e-05,1.021575340498515e-05,5.7618991166741296e-05
2.500351905822754,4.464693802486153e-05,2.7563752904136152e-05,1.4625536563173114e-05,-2.844896423859211e-05,1.0215753404096972e-05,5.7618991166741296e-05
2.51019287109375,4.473415043015905e-05,2.0767397153953482e-05,1.9848669277955366e-05,-2.7806246614581198e-05,8.426700873087611e-06,5.732106429423567e-05
2.5205771923065186,4.464693802486153e-05,2.7563752904136152e-05,1.4625536562284935e-05,-2.844896423948029e-05,1.0215753404096972e-05,5.7618991166741296e-05
2.530097484588623,4.473415043015905e-05,2.0767397153065303e-05,1.9848669277067188e-05,-2.7806246614581198e-05,8.426700873087611e-06,5.732106429423567e-05
2.540419816970825,4.464693802486153e-05,2.7563752903247973e-05,1.4625536562284935e-05,-2.844896423859211e-05,1.0215753404096972e-05,5.7618991166741296e-05
2.5501604080200195,4.464693802486153e-05,2.7563752903247973e-05,1.4625536561396757e-05,-2.844896423948029e-05,1.0215753404096972e-05,5.7618991166741296e-05
2.5602118968963623,4.464693802486153e-05,2.7563752903247973e-05,1.4625536564061292e-05,-2.844896423859211e-05,1.0215753404096972e-05,5.7618991166741296e-05
2.572618246078491,4.473415043015905e-05,2.0767397153953482e-05,1.9848669277067188e-05,-2.7806246614581198e-05,8.42670087397579e-06,5.732106429423567e-05
2.581141233444214,4.464693802486153e-05,2.7563752904136152e-05,1.4625536562284935e-05,-2.844896423859211e-05,1.0215753404096972e-05,5.7618991166741296e-05
2.5904884338378906,4.464693802486153e-05,2.7563752904136152e-05,1.4625536562284935e-05,-2.844896423859211e-05,1.0215753404096972e-05,5.761899116585312e-05
2.60850191116333,4.464693802486153e-05,2.7563752903247973e-05,1.4625536564061292e-05,-2.844896423948029e-05,1.021575340498515e-05,5.7618991166741296e-05
2.6102466583251953,4.473415042927087e-05,2.0767397153065303e-05,1.984866927617901e-05,-2.7806246614581198e-05,8.42670087397579e-06,5.732106429245931e-05
2.6200857162475586,4.464693802486153e-05,2.7563752903247973e-05,1.4625536562284935e-05,-2.844896423859211e-05,1.021575340498515e-05,5.761899116585312e-05
2.6303627490997314,4.464693802486153e-05,2.7563752904136152e-05,1.4625536561396757e-05,-2.844896423859211e-05,1.0215753404096972e-05,5.7618991166741296e-05
2.640554428100586,4.464693802486153e-05,2.7563752903247973e-05,1.4625536562284935e-05,-2.844896423859211e-05,1.0215753404096972e-05,5.761899116585312e-05
2.6568660736083984,4.473415042927087e-05,2.0767397153065303e-05,1.9848669277955366e-05,-2.7806246614581198e-05,8.426700873087611e-06,5.732106429423567e-05
2.660614013671875,4.473415043015905e-05,2.0767397153065303e-05,1.9848669277955366e-05,-2.7806246614581198e-05,8.426700873087611e-06,5.732106429245931e-05
2.670663356781006,4.473415043015905e-05,2.0767397153065303e-05,1.9848669277067188e-05,-2.7806246614581198e-05,8.42670087397579e-06,5.732106429157113e-05
2.681225538253784,4.464693802486153e-05,2.7563752903247973e-05,1.4625536562284935e-05,-2.844896423859211e-05,1.021575340498515e-05,5.7618991166741296e-05
2.6902804374694824,4.464693802486153e-05,2.7563752904136152e-05,1.4625536561396757e-05,-2.844896423948029e-05,1.0215753404096972e-05,5.7618991166741296e-05
2.7009737491607666,4.473415042927087e-05,2.0767397153953482e-05,1.9848669277067188e-05,-2.7806246614581198e-05,8.42670087397579e-06,5.732106429245931e-05
2.710212230682373,4.473415042927087e-05,2.0767397153065303e-05,1.9848669277067188e-05,-2.7806246614581198e-05,8.42670087397579e-06,5.732106429334749e-05
2.720831871032715,4.464693802486153e-05,2.7563752903247973e-05,1.4625536562284935e-05,-2.844896423948029e-05,1.0215753404096972e-05,5.7618991167629474e-05
2.7343642711639404,4.464693802486153e-05,2.7563752904136152e-05,1.4625536562284935e-05,-2.844896423859211e-05,1.0215753404096972e-05,5.7618991166741296e-05
2.7402639389038086,4.464693802486153e-05,2.7563752903247973e-05,1.4625536562284935e-05,-2.844896423948029e-05,1.0215753404096972e-05,5.7618991167629474e-05
2.7513720989227295,4.473415042927087e-05,2.0767397153065303e-05,1.9848669277067188e-05,-2.7806246614581198e-05,8.42670087397579e-06,5.732106429245931e-05
2.7616939544677734,4.464693802486153e-05,2.7563752904136152e-05,1.4625536562284935e-05,-2.844896423948029e-05,1.021575340498515e-05,5.7618991166741296e-05
2.772160291671753,4.464693802486153e-05,2.7563752903247973e-05,1.4625536562284935e-05,-2.844896423859211e-05,1.0215753404096972e-05,5.7618991166741296e-05
2.781294584274292,4.464693802486153e-05,2.7563752903247973e-05,1.462553656494947e-05,-2.844896423948029e-05,1.0215753404096972e-05,5.761899116585312e-05
2.791602611541748,4.473415042927087e-05,2.0767397153953482e-05,1.9848669277955366e-05,-2.7806246614581198e-05,8.426700873087611e-06,5.732106429334749e-05
2.800623655319214,4.464693802486153e-05,2.7563752904136152e-05,1.4625536563173114e-05,-2.844896423859211e-05,1.021575340498515e-05,5.7618991166741296e-05
2.8111257553100586,4.473415042927087e-05,2.0767397153065303e-05,1.9848669277067188e-05,-2.780624661369302e-05,8.42670087397579e-06,5.732106429245931e-05
2.820523738861084,4.464693802486153e-05,2.7563752904136152e-05,1.4625536562284935e-05,-2.844896423859211e-05,1.0215753404096972e-05,5.7618991167629474e-05
2.8304367065429688,4.473415043015905e-05,2.0767397153953482e-05,1.9848669277955366e-05,-2.7806246614581198e-05,8.42670087397579e-06,5.732106429334749e-05
2.842024087905884,4.473415042927087e-05,2.0767397153953482e-05,1.9848669277067188e-05,-2.7806246614581198e-05,8.42670087397579e-06,5.732106429334749e-05
2.8542277812957764,4.473415043015905e-05,2.0767397153953482e-05,1.9848669274402653e-05,-2.7806246614581198e-05,8.426700873087611e-06,5.732106429512385e-05
2.8601551055908203,4.464693802486153e-05,2.7563752904136152e-05,1.4625536562284935e-05,-2.844896423859211e-05,1.0215753404096972e-05,5.7618991166741296e-05
2.870603322982788,4.473415042927087e-05,2.0767397153065303e-05,1.9848669277067188e-05,-2.7806246614581198e-05,8.426700873087611e-06,5.732106429334749e-05
2.88016939163208,4.464693802486153e-05,2.7563752903247973e-05,1.4625536562284935e-05,-2.844896423859211e-05,1.021575340498515e-05,5.7618991167629474e-05
2.8902838230133057,4.473415043015905e-05,2.0767397153953482e-05,1.9848669277067188e-05,-2.7806246614581198e-05,8.426700873087611e-06,5.732106429245931e-05
2.9005422592163086,4.473415042927087e-05,2.0767397153953482e-05,1.9848669277067188e-05,-2.7806246614581198e-05,8.426700873087611e-06,5.732106429423567e-05
2.9105281829833984,4.473415042927087e-05,2.0767397153953482e-05,1.9848669277955366e-05,-2.7806246614581198e-05,8.42670087397579e-06,5.732106429245931e-05
2.9233596324920654,4.464693802486153e-05,2.7563752903247973e-05,1.4625536562284935e-05,-2.844896423859211e-05,1.0215753404096972e-05,5.761899116585312e-05
2.9302477836608887,4.464693802486153e-05,2.7563752903247973e-05,1.4625536561396757e-05,-2.844896423859211e-05,1.021575340498515e-05,5.7618991166741296e-05
2.9402620792388916,4.473415043015905e-05,2.0767397153953482e-05,1.9848669277955366e-05,-2.7806246614581198e-05,8.42670087397579e-06,5.732106429423567e-05
2.9517714977264404,4.464693802486153e-05,2.7563752903247973e-05,1.4625536561396757e-05,-2.844896423859211e-05,1.021575340498515e-05,5.7618991166741296e-05
2.9646410942077637,4.473415042927087e-05,2.0767397153065303e-05,1.984866927617901e-05,-2.7806246614581198e-05,8.42670087397579e-06,5.732106429334749e-05
2.970229387283325,4.464693802486153e-05,2.7563752903247973e-05,1.4625536561396757e-05,-2.844896423859211e-05,1.0215753404096972e-05,5.7618991166741296e-05
2.982233762741089,4.473415042927087e-05,2.0767397153065303e-05,1.9848669277955366e-05,-2.780624661369302e-05,8.42670087397579e-06,5.732106429512385e-05
2.9904696941375732,4.464693802486153e-05,2.7563752903247973e-05,1.4625536562284935e-05,-2.844896423859211e-05,1.0215753404096972e-05,5.7618991166741296e-05
3.0005462169647217,4.464693802486153e-05,2.7563752904136152e-05,1.4625536563173114e-05,-2.844896423859211e-05,1.0215753404096972e-05,5.761899116585312e-05
3.0101072788238525,4.464693802486153e-05,2.7563752903247973e-05,1.4625536561396757e-05,-2.844896423948029e-05,1.0215753404096972e-05,5.7618991167629474e-05
3.0204875469207764,4.473415042927087e-05,2.0767397153953482e-05,1.9848669277067188e-05,-2.7806246614581198e-05,8.42670087397579e-06,5.732106429157113e-05
3.0312557220458984,4.464693802486153e-05,2.7563752903247973e-05,1.4625536564061292e-05,-2.844896423859211e-05,1.021575340498515e-05,5.7618991166741296e-05
3.0401272773742676,4.464693802486153e-05,2.7563752904136152e-05,1.4625536562284935e-05,-2.844896423859211e-05,1.0215753404096972e-05,5.761899116585312e-05
3.0501582622528076,4.473415042927087e-05,2.0767397153953482e-05,1.9848669277067188e-05,-2.7806246614581198e-05,8.42670087397579e-06,5.732106429423567e-05
3.0602197647094727,4.464693802486153e-05,2.7563752904136152e-05,1.4625536562284935e-05,-2.844896423948029e-05,1.021575340498515e-05,5.7618991166741296e-05
3.0752851963043213,4.464693802486153e-05,2.7563752903247973e-05,1.4625536562284935e-05,-2.844896423859211e-05,1.021575340498515e-05,5.761899116585312e-05
3.080493688583374,4.464693802486153e-05,2.7563752903247973e-05,1.4625536561396757e-05,-2.844896423948029e-05,1.0215753404096972e-05,5.761899116585312e-05
3.0926787853240967,4.464693802486153e-05,2.7563752904136152e-05,1.4625536561396757e-05,-2.844896423948029e-05,1.021575340498515e-05,5.7618991166741296e-05
3.103278875350952,4.464693802486153e-05,2.7563752903247973e-05,1.4625536563173114e-05,-2.844896423859211e-05,1.0215753404096972e-05,5.7618991167629474e-05
3.1102726459503174,4.464693802486153e-05,2.7563752904136152e-05,1.4625536562284935e-05,-2.844896423948029e-05,1.0215753404096972e-05,5.7618991166741296e-05
3.1221983432769775,4.464693802486153e-05,2.7563752904136152e-05,1.4625536563173114e-05,-2.844896423859211e-05,1.021575340498515e-05,5.761899116585312e-05
3.1319682598114014,4.473415043015905e-05,2.0767397153065303e-05,1.9848669277067188e-05,-2.7806246614581198e-05,8.42670087397579e-06,5.732106429423567e-05
3.140439987182617,4.464693802486153e-05,2.7563752903247973e-05,1.4625536562284935e-05,-2.844896423859211e-05,1.0215753404096972e-05,5.7618991166741296e-05
3.153144359588623,4.464693802486153e-05,2.7563752903247973e-05,1.4625536561396757e-05,-2.844896423859211e-05,1.0215753404096972e-05,5.7618991166741296e-05
3.1616365909576416,4.473415043015905e-05,2.0767397153065303e-05,1.9848669277067188e-05,-2.780624661369302e-05,8.42670087397579e-06,5.732106429512385e-05
3.170037031173706,4.464693802486153e-05,2.7563752904136152e-05,1.4625536562284935e-05,-2.844896423948029e-05,1.0215753404096972e-05,5.761899116585312e-05
3.187082052230835,4.473415043015905e-05,2.0767397153953482e-05,1.9848669277955366e-05,-2.7806246614581198e-05,8.426700873087611e-06,5.732106429334749e-05
3.1918768882751465,4.473415042927087e-05,2.0767397153065303e-05,1.984866927617901e-05,-2.7806246614581198e-05,8.42670087397579e-06,5.732106429245931e-05
3.2006542682647705,4.473415042927087e-05,2.0767397153065303e-05,1.9848669277067188e-05,-2.780624661369302e-05,8.42670087397579e-06,5.732106429512385e-05
3.2147185802459717,4.464693802486153e-05,2.7563752904136152e-05,1.4625536562284935e-05,-2.844896423859211e-05,1.021575340498515e-05,5.761899116585312e-05
3.220715045928955,4.464693802486153e-05,2.7563752904136152e-05,1.4625536561396757e-05,-2.844896423859211e-05,1.021575340498515e-05,5.761899116585312e-05
3.2326595783233643,4.473415043015905e-05,2.0767397153953482e-05,1.984866927617901e-05,-2.7806246614581198e-05,8.42670087397579e-06,5.732106429423567e-05
3.2405200004577637,4.464693802486153e-05,2.7563752903247973e-05,1.4625536562284935e-05,-2.844896423859211e-05,1.0215753404096972e-05,5.7618991166741296e-05
3.2533841133117676,4.473415043015905e-05,2.0767397153953482e-05,1.9848669277955366e-05,-2.7806246614581198e-05,8.42670087397579e-06,5.732106429157113e-05
3.2625811100006104,4.473415042927087e-05,2.0767397153065303e-05,1.984866927617901e-05,-2.7806246614581198e-05,8.42670087397579e-06,5.732106429245931e-05
3.272289991378784,4.473415042927087e-05,2.0767397153953482e-05,1.9848669277955366e-05,-2.7806246614581198e-05,8.42670087397579e-06,5.732106429157113e-05
3.280195713043213,4.473415042927087e-05,2.0767397153953482e-05,1.9848669277955366e-05,-2.7806246614581198e-05,8.42670087397579e-06,5.732106429157113e-05
3.2901217937469482,4.473415043015905e-05,2.0767397153065303e-05,1.9848669277067188e-05,-2.7806246614581198e-05,8.426700873087611e-06,5.732106429157113e-05
3.3024797439575195,4.464693802486153e-05,2.7563752903247973e-05,1.4625536561396757e-05,-2.844896423859211e-05,1.021575340498515e-05,5.7618991166741296e-05
3.310655117034912,4.464693802486153e-05,2.7563752904136152e-05,1.4625536562284935e-05,-2.844896423948029e-05,1.0215753404096972e-05,5.7618991166741296e-05
3.32122802734375,4.473415042927087e-05,2.0767397153065303e-05,1.984866927617901e-05,-2.7806246614581198e-05,8.42670087397579e-06,5.732106429245931e-05
3.3301613330841064,4.473415042927087e-05,2.0767397153065303e-05,1.9848669277067188e-05,-2.7806246614581198e-05,8.42670087397579e-06,5.732106429334749e-05
3.340561628341675,4.473415043015905e-05,2.0767397153065303e-05,1.9848669277955366e-05,-2.7806246614581198e-05,8.42670087397579e-06,5.732106429245931e-05
3.351794958114624,4.464693802486153e-05,2.7563752903247973e-05,1.4625536563173114e-05,-2.844896423859211e-05,1.0215753404096972e-05,5.761899116585312e-05
3.3602070808410645,4.464693802486153e-05,2.7563752904136152e-05,1.4625536562284935e-05,-2.844896423948029e-05,1.021575340498515e-05,5.7618991166741296e-05
3.3700571060180664,4.464693802486153e-05,2.7563752903247973e-05,1.4625536562284935e-05,-2.844896423859211e-05,1.0215753404096972e-05,5.7618991166741296e-05
3.3837978839874268,4.473415042927087e-05,2.0767397153065303e-05,1.9848669277067188e-05,-2.780624661369302e-05,8.42670087397579e-06,5.732106429334749e-05
3.3906095027923584,4.464693802486153e-05,2.7563752904136152e-05,1.4625536562284935e-05,-2.844896423859211e-05,1.0215753404096972e-05,5.7618991166741296e-05
3.4011001586914062,4.473415043015905e-05,2.0767397153065303e-05,1.984866927617901e-05,-2.7806246614581198e-05,8.42670087397579e-06,5.732106429423567e-05
3.415637969970703,4.473415043015905e-05,2.0767397153953482e-05,1.9848669277067188e-05,-2.7806246614581198e-05,8.42670087397579e-06,5.732106429423567e-05
3.42232346534729,4.473415043015905e-05,2.0767397153065303e-05,1.9848669277955366e-05,-2.7806246614581198e-05,8.42670087397579e-06,5.732106429512385e-05
3.4301373958587646,4.473415043015905e-05,2.0767397153065303e-05,1.9848669278843545e-05,-2.7806246614581198e-05,8.426700873087611e-06,5.732106429423567e-05
3.4435014724731445,4.464693802486153e-05,2.7563752903247973e-05,1.4625536563173114e-05,-2.844896423859211e-05,1.0215753404096972e-05,5.761899116585312e-05
3.4515860080718994,4.473415043015905e-05,2.0767397153065303e-05,1.9848669277067188e-05,-2.7806246614581198e-05,8.42670087397579e-06,5.732106429423567e-05
3.460064649581909,4.473415043015905e-05,2.0767397153065303e-05,1.9848669277067188e-05,-2.780624661369302e-05,8.42670087397579e-06,5.732106429245931e-05
3.4705820083618164,4.464693802486153e-05,2.7563752904136152e-05,1.4625536563173114e-05,-2.844896423948029e-05,1.0215753404096972e-05,5.7618991166741296e-05
3.4800608158111572,4.464693802486153e-05,2.7563752904136152e-05,1.4625536563173114e-05,-2.844896423859211e-05,1.0215753404096972e-05,5.7618991166741296e-05
3.491070508956909,4.473415043015905e-05,2.0767397153065303e-05,1.984866927617901e-05,-2.7806246614581198e-05,8.42670087397579e-06,5.732106429245931e-05
3.5031723976135254,4.473415043015905e-05,2.0767397153065303e-05,1.9848669277955366e-05,-2.780624661369302e-05,8.42670087397579e-06,5.732106429423567e-05
3.5102877616882324,4.464693802486153e-05,2.7563752903247973e-05,1.4625536563173114e-05,-2.844896423859211e-05,1.021575340498515e-05,5.761899116585312e-05
3.520739793777466,4.473415043015905e-05,2.0767397153065303e-05,1.984866927617901e-05,-2.780624661369302e-05,8.426700873087611e-06,5.732106429334749e-05
3.5301671028137207,4.473415042927087e-05,2.0767397153065303e-05,1.984866927617901e-05,-2.7806246614581198e-05,8.42670087397579e-06,5.732106429157113e-05
3.5405046939849854,4.464693802486153e-05,2.7563752904136152e-05,1.4625536561396757e-05,-2.844896423859211e-05,1.0215753404096972e-05,5.7618991166741296e-05
3.557293176651001,4.473415042927087e-05,2.0767397153065303e-05,1.9848669277955366e-05,-2.7806246614581198e-05,8.42670087397579e-06,5.732106429245931e-05
3.563101053237915,4.464693802486153e-05,2.7563752903247973e-05,1.4625536561396757e-05,-2.844896423948029e-05,1.021575340498515e-05,5.7618991166741296e-05
3.570139169692993,4.473415043015905e-05,2.0767397153953482e-05,1.9848669277067188e-05,-2.7806246614581198e-05,8.42670087397579e-06,5.732106429423567e-05
3.580125331878662,4.473415043015905e-05,2.0767397153065303e-05,1.9848669277067188e-05,-2.7806246614581198e-05,8.42670087397579e-06,5.732106429334749e-05
3.5907721519470215,4.464693802486153e-05,2.7563752904136152e-05,1.4625536562284935e-05,-2.844896423859211e-05,1.0215753404096972e-05,5.761899116585312e-05
3.600126266479492,4.464693802486153e-05,2.7563752904136152e-05,1.4625536563173114e-05,-2.844896423948029e-05,1.021575340498515e-05,5.7618991167629474e-05
3.6134402751922607,4.464693802486153e-05,2.7563752903247973e-05,1.462553656494947e-05,-2.844896423859211e-05,1.0215753404096972e-05,5.7618991166741296e-05
3.6203529834747314,4.473415043015905e-05,2.0767397153065303e-05,1.9848669277067188e-05,-2.780624661369302e-05,8.42670087397579e-06,5.732106429245931e-05
3.6301352977752686,4.473415042927087e-05,2.0767397153065303e-05,1.9848669277067188e-05,-2.7806246614581198e-05,8.42670087397579e-06,5.732106429512385e-05
3.641446828842163,4.473415043015905e-05,2.0767397153953482e-05,1.9848669277067188e-05,-2.780624661369302e-05,8.426700873087611e-06,5.732106429423567e-05
3.6533291339874268,4.473415043015905e-05,2.0767397153953482e-05,1.984866927617901e-05,-2.780624661369302e-05,8.426700873087611e-06,5.732106429334749e-05
3.661250352859497,4.464693802486153e-05,2.7563752903247973e-05,1.4625536562284935e-05,-2.844896423859211e-05,1.0215753404096972e-05,5.761899116585312e-05
3.678835153579712,4.464693802486153e-05,2.7563752904136152e-05,1.4625536562284935e-05,-2.844896423948029e-05,1.021575340498515e-05,5.7618991166741296e-05
3.6801671981811523,4.464693802486153e-05,2.7563752903247973e-05,1.4625536562284935e-05,-2.844896423859211e-05,1.0215753404096972e-05,5.7618991167629474e-05
3.692190408706665,4.473415042927087e-05,2.0767397153953482e-05,1.984866927617901e-05,-2.780624661369302e-05,8.42670087397579e-06,5.732106429334749e-05
3.70853328704834,4.473415043015905e-05,2.0767397153065303e-05,1.984866927617901e-05,-2.780624661369302e-05,8.426700873087611e-06,5.732106429245931e-05
3.7101070880889893,4.464693802486153e-05,2.7563752904136152e-05,1.4625536563173114e-05,-2.844896423859211e-05,1.0215753404096972e-05,5.7618991166741296e-05
3.7203516960144043,4.464693802486153e-05,2.7563752903247973e-05,1.4625536562284935e-05,-2.844896423859211e-05,1.0215753404096972e-05,5.7618991166741296e-05
3.730426788330078,4.464693802486153e-05,2.7563752903247973e-05,1.4625536561396757e-05,-2.844896423859211e-05,1.0215753404096972e-05,5.761899116585312e-05
3.740403652191162,4.473415043015905e-05,2.0767397153065303e-05,1.9848669277067188e-05,-2.7806246614581198e-05,8.42670087397579e-06,5.732106429245931e-05
3.75022029876709,4.473415042927087e-05,2.0767397153065303e-05,1.984866927617901e-05,-2.7806246614581198e-05,8.42670087397579e-06,5.732106429334749e-05
3.7601959705352783,4.464693802486153e-05,2.7563752904136152e-05,1.4625536562284935e-05,-2.844896423948029e-05,1.0215753404096972e-05,5.7618991167629474e-05
3.770228624343872,4.464693802486153e-05,2.7563752904136152e-05,1.4625536563173114e-05,-2.844896423859211e-05,1.0215753404096972e-05,5.761899116585312e-05
3.7801098823547363,4.473415042927087e-05,2.0767397153953482e-05,1.9848669277067188e-05,-2.780624661369302e-05,8.42670087397579e-06,5.732106429423567e-05
3.790846824645996,4.473415042927087e-05,2.0767397153953482e-05,1.9848669277955366e-05,-2.7806246614581198e-05,8.42670087397579e-06,5.732106429423567e-05
3.8028604984283447,4.473415043015905e-05,2.0767397153065303e-05,1.984866927617901e-05,-2.780624661369302e-05,8.42670087397579e-06,5.732106429334749e-05
3.8125205039978027,4.464693802486153e-05,2.7563752904136152e-05,1.4625536561396757e-05,-2.844896423859211e-05,1.0215753404096972e-05,5.7618991166741296e-05
3.820186138153076,4.473415042927087e-05,2.0767397153065303e-05,1.9848669277067188e-05,-2.780624661369302e-05,8.42670087397579e-06,5.732106429334749e-05
3.830308198928833,4.473415043015905e-05,2.0767397153065303e-05,1.9848669277067188e-05,-2.7806246614581198e-05,8.426700873087611e-06,5.732106429334749e-05
3.840714931488037,4.464693802486153e-05,2.7563752904136152e-05,1.4625536562284935e-05,-2.844896423859211e-05,1.0215753404096972e-05,5.761899116585312e-05
3.8500609397888184,4.473415043015905e-05,2.0767397153065303e-05,1.9848669277955366e-05,-2.7806246614581198e-05,8.42670087397579e-06,5.732106429245931e-05
3.860093355178833,4.464693802486153e-05,2.7563752903247973e-05,1.4625536561396757e-05,-2.844896423859211e-05,1.021575340498515e-05,5.7618991166741296e-05
3.8721401691436768,4.464693802486153e-05,2.7563752904136152e-05,1.4625536561396757e-05,-2.844896423859211e-05,1.0215753404096972e-05,5.761899116585312e-05
3.8801767826080322,4.464693802486153e-05,2.7563752904136152e-05,1.4625536563173114e-05,-2.844896423948029e-05,1.021575340498515e-05,5.761899116585312e-05
3.890471935272217,4.464693802486153e-05,2.7563752903247973e-05,1.4625536562284935e-05,-2.844896423859211e-05,1.0215753404096972e-05,5.7618991166741296e-05
3.900973081588745,4.473415042927087e-05,2.0767397153065303e-05,1.9848669277955366e-05,-2.7806246614581198e-05,8.42670087397579e-06,5.732106429512385e-05
3.9103965759277344,4.473415042927087e-05,2.0767397153065303e-05,1.9848669277067188e-05,-2.780624661369302e-05,8.42670087397579e-06,5.732106429245931e-05
3.925720453262329,4.464693802486153e-05,2.7563752903247973e-05,1.4625536562284935e-05,-2.844896423859211e-05,1.0215753404096972e-05,5.7618991166741296e-05
3.9312102794647217,4.473415043015905e-05,2.0767397153065303e-05,1.9848669277067188e-05,-2.7806246614581198e-05,8.42670087397579e-06,5.732106429245931e-05
3.9401187896728516,4.473415042927087e-05,2.0767397153065303e-05,1.9848669277955366e-05,-2.7806246614581198e-05,8.426700873087611e-06,5.732106429334749e-05
3.950237512588501,4.473415042927087e-05,2.0767397153065303e-05,1.984866927617901e-05,-2.780624661369302e-05,8.426700873087611e-06,5.732106429245931e-05
3.960252046585083,4.464693802486153e-05,2.7563752903247973e-05,1.4625536562284935e-05,-2.844896423948029e-05,1.0215753404096972e-05,5.761899116585312e-05
3.97068190574646,4.473415043015905e-05,2.0767397153065303e-05,1.9848669277067188e-05,-2.7806246614581198e-05,8.426700873087611e-06,5.732106429245931e-05
3.984318971633911,4.473415043015905e-05,2.0767397153065303e-05,1.9848669277067188e-05,-2.780624661369302e-05,8.42670087397579e-06,5.732106429423567e-05
3.9902822971343994,4.473415043015905e-05,2.0767397153065303e-05,1.9848669277067188e-05,-2.7806246614581198e-05,8.42670087397579e-06,5.732106429334749e-05
4.000401020050049,4.464693802486153e-05,2.7563752903247973e-05,1.4625536561396757e-05,-2.844896423859211e-05,1.021575340498515e-05,5.7618991166741296e-05
4.013263463973999,4.473415043015905e-05,2.0767397153065303e-05,1.9848669277067188e-05,-2.7806246614581198e-05,8.42670087397579e-06,5.732106429423567e-05
4.020143270492554,4.464693802486153e-05,2.7563752903247973e-05,1.4625536562284935e-05,-2.844896423859211e-05,1.0215753404096972e-05,5.7618991166741296e-05
4.030067682266235,4.473415043015905e-05,2.0767397153065303e-05,1.9848669277067188e-05,-2.7806246614581198e-05,8.42670087397579e-06,5.732106429423567e-05
4.040055274963379,4.464693802486153e-05,2.7563752903247973e-05,1.4625536563173114e-05,-2.844896423859211e-05,1.0215753404096972e-05,5.761899116585312e-05
4.0553154945373535,4.464693802486153e-05,2.7563752904136152e-05,1.4625536562284935e-05,-2.844896423859211e-05,1.021575340498515e-05,5.7618991166741296e-05
4.062486886978149,4.473415042927087e-05,2.0767397153953482e-05,1.9848669277955366e-05,-2.780624661369302e-05,8.42670087397579e-06,5.732106429245931e-05
4.070257186889648,4.473415043015905e-05,2.0767397153065303e-05,1.984866927617901e-05,-2.7806246614581198e-05,8.42670087397579e-06,5.732106429334749e-05
4.0806214809417725,4.464693802486153e-05,2.7563752903247973e-05,1.4625536561396757e-05,-2.844896423859211e-05,1.021575340498515e-05,5.7618991166741296e-05
4.090251207351685,4.473415043015905e-05,2.0767397153953482e-05,1.9848669277955366e-05,-2.7806246614581198e-05,8.42670087397579e-06,5.732106429423567e-05
4.100775718688965,4.464693802486153e-05,2.7563752903247973e-05,1.4625536562284935e-05,-2.844896423859211e-05,1.021575340498515e-05,5.7618991166741296e-05
4.110736608505249,4.473415042927087e-05,2.0767397153065303e-05,1.9848669277067188e-05,-2.7806246614581198e-05,8.42670087397579e-06,5.732106429245931e-05
4.120164394378662,4.464693802486153e-05,2.7563752903247973e-05,1.4625536561396757e-05,-2.844896423948029e-05,1.0215753404096972e-05,5.761899116585312e-05
4.130188226699829,4.473415043015905e-05,2.0767397153065303e-05,1.984866927617901e-05,-2.780624661369302e-05,8.42670087397579e-06,5.732106429334749e-05
4.141124486923218,4.464693802486153e-05,2.7563752904136152e-05,1.4625536561396757e-05,-2.844896423859211e-05,1.021575340498515e-05,5.7618991167629474e-05
4.150876045227051,4.464693802486153e-05,2.7563752904136152e-05,1.4625536562284935e-05,-2.844896423859211e-05,1.021575340498515e-05,5.7618991166741296e-05
4.1623523235321045,4.464693802486153e-05,2.7563752903247973e-05,1.4625536563173114e-05,-2.844896423948029e-05,1.0215753404096972e-05,5.7618991167629474e-05
4.17017126083374,4.473415043015905e-05,2.0767397153065303e-05,1.9848669277067188e-05,-2.7806246614581198e-05,8.42670087397579e-06,5.732106429334749e-05
4.180164575576782,4.464693802486153e-05,2.7563752903247973e-05,1.4625536563173114e-05,-2.844896423859211e-05,1.0215753404096972e-05,5.7618991166741296e-05
4.192376375198364,4.464693802486153e-05,2.7563752904136152e-05,1.4625536562284935e-05,-2.844896423859211e-05,1.0215753404096972e-05,5.7618991166741296e-05
4.200118541717529,4.473415042927087e-05,2.0767397153953482e-05,1.9848669277067188e-05,-2.7806246614581198e-05,8.426700873087611e-06,5.732106429423567e-05
4.210705041885376,4.473415042927087e-05,2.0767397153065303e-05,1.9848669277955366e-05,-2.7806246614581198e-05,8.42670087397579e-06,5.732106429245931e-05
4.220953702926636,4.473415043015905e-05,2.0767397153065303e-05,1.9848669277067188e-05,-2.7806246614581198e-05,8.42670087397579e-06,5.732106429423567e-05
4.230311870574951,4.473415042927087e-05,2.0767397153065303e-05,1.9848669277067188e-05,-2.7806246614581198e-05,8.42670087397579e-06,5.732106429157113e-05
4.240387916564941,4.464693802486153e-05,2.7563752903247973e-05,1.4625536562284935e-05,-2.844896423859211e-05,1.0215753404096972e-05,5.7618991166741296e-05
4.250402927398682,4.473415043015905e-05,2.0767397153953482e-05,1.9848669277955366e-05,-2.7806246614581198e-05,8.426700873087611e-06,5.732106429334749e-05
4.260164022445679,4.473415042927087e-05,2.0767397153953482e-05,1.9848669277067188e-05,-2.7806246614581198e-05,8.42670087397579e-06,5.732106429245931e-05
4.270169734954834,4.473415043015905e-05,2.0767397153065303e-05,1.984866927617901e-05,-2.7806246614581198e-05,8.42670087397579e-06,5.732106429423567e-05
4.280220985412598,4.473415043015905e-05,2.0767397153953482e-05,1.9848669277955366e-05,-2.780624661369302e-05,8.42670087397579e-06,5.732106429512385e-05
4.292672157287598,4.464693802486153e-05,2.7563752904136152e-05,1.4625536561396757e-05,-2.844896423859211e-05,1.0215753404096972e-05,5.7618991166741296e-05
4.301520347595215,4.464693802486153e-05,2.7563752904136152e-05,1.4625536561396757e-05,-2.844896423859211e-05,1.0215753404096972e-05,5.7618991166741296e-05
4.310246706008911,4.473415042927087e-05,2.0767397153065303e-05,1.984866927529083e-05,-2.7806246614581198e-05,8.42670087397579e-06,5.732106429334749e-05
4.320146083831787,4.473415042927087e-05,2.0767397153953482e-05,1.9848669277067188e-05,-2.7806246614581198e-05,8.42670087397579e-06,5.732106429423567e-05
4.330342769622803,4.473415042927087e-05,2.0767397153953482e-05,1.9848669277067188e-05,-2.7806246614581198e-05,8.42670087397579e-06,5.732106429423567e-05
4.340284824371338,4.464693802486153e-05,2.7563752903247973e-05,1.4625536562284935e-05,-2.844896423859211e-05,1.0215753404096972e-05,5.7618991167629474e-05
4.350292921066284,4.473415042927087e-05,2.0767397153065303e-05,1.984866927617901e-05,-2.7806246614581198e-05,8.426700873087611e-06,5.732106429423567e-05
4.360460519790649,4.464693802486153e-05,2.7563752904136152e-05,1.4625536561396757e-05,-2.844896423859211e-05,1.0215753404096972e-05,5.7618991166741296e-05
4.370196580886841,4.473415042927087e-05,2.0767397153065303e-05,1.9848669277955366e-05,-2.7806246614581198e-05,8.42670087397579e-06,5.732106429423567e-05
4.3804931640625,4.473415042927087e-05,2.0767397153953482e-05,1.9848669277955366e-05,-2.7806246614581198e-05,8.42670087397579e-06,5.732106429423567e-05
4.390166759490967,4.473415043015905e-05,2.0767397153065303e-05,1.9848669277067188e-05,-2.7806246614581198e-05,8.42670087397579e-06,5.732106429245931e-05
4.400225639343262,4.464693802486153e-05,2.7563752903247973e-05,1.4625536562284935e-05,-2.844896423948029e-05,1.0215753404096972e-05,5.7618991166741296e-05
4.411605358123779,4.464693802486153e-05,2.7563752904136152e-05,1.4625536563173114e-05,-2.844896423859211e-05,1.021575340498515e-05,5.7618991166741296e-05
4.420233488082886,4.473415043015905e-05,2.0767397153953482e-05,1.9848669277067188e-05,-2.7806246614581198e-05,8.42670087397579e-06,5.732106429245931e-05
4.430054664611816,4.473415042927087e-05,2.0767397153065303e-05,1.9848669277955366e-05,-2.7806246614581198e-05,8.426700873087611e-06,5.732106429245931e-05
4.443517684936523,4.464693802486153e-05,2.7563752904136152e-05,1.4625536561396757e-05,-2.844896423859211e-05,1.0215753404096972e-05,5.7618991166741296e-05
4.453294992446899,4.473415043015905e-05,2.0767397153065303e-05,1.984866927617901e-05,-2.7806246614581198e-05,8.42670087397579e-06,5.732106429423567e-05
4.460343837738037,4.473415042927087e-05,2.0767397153065303e-05,1.984866927617901e-05,-2.7806246614581198e-05,8.42670087397579e-06,5.732106429334749e-05
4.4717206954956055,4.464693802486153e-05,2.7563752904136152e-05,1.4625536561396757e-05,-2.844896423859211e-05,1.0215753404096972e-05,5.7618991166741296e-05
4.481905221939087,4.473415043015905e-05,2.0767397153065303e-05,1.9848669277067188e-05,-2.7806246614581198e-05,8.42670087397579e-06,5.732106429157113e-05
4.49124813079834,4.464693802486153e-05,2.7563752904136152e-05,1.4625536561396757e-05,-2.844896423859211e-05,1.0215753404096972e-05,5.7618991166741296e-05
4.500195264816284,4.464693802486153e-05,2.7563752903247973e-05,1.4625536562284935e-05,-2.844896423859211e-05,1.021575340498515e-05,5.7618991166741296e-05
4.510213613510132,4.473415042927087e-05,2.0767397153065303e-05,1.9848669277067188e-05,-2.7806246614581198e-05,8.42670087397579e-06,5.732106429245931e-05
4.520123243331909,4.464693802486153e-05,2.7563752904136152e-05,1.4625536562284935e-05,-2.844896423859211e-05,1.0215753404096972e-05,5.7618991166741296e-05
4.536660432815552,4.473415042927087e-05,2.0767397153065303e-05,1.9848669277067188e-05,-2.7806246614581198e-05,8.426700873087611e-06,5.732106429245931e-05
4.544072151184082,4.464693802486153e-05,2.7563752904136152e-05,1.4625536561396757e-05,-2.844896423948029e-05,1.0215753404096972e-05,5.7618991167629474e-05
4.550145387649536,4.473415042927087e-05,2.0767397153065303e-05,1.984866927617901e-05,-2.780624661369302e-05,8.42670087397579e-06,5.732106429512385e-05
4.564715147018433,4.464693802486153e-05,2.7563752904136152e-05,1.4625536562284935e-05,-2.844896423859211e-05,1.0215753404096972e-05,5.761899116585312e-05
4.570325613021851,4.464693802486153e-05,2.7563752903247973e-05,1.4625536563173114e-05,-2.844896423948029e-05,1.0215753404096972e-05,5.7618991166741296e-05
4.5823633670806885,4.464693802486153e-05,2.7563752903247973e-05,1.4625536562284935e-05,-2.844896423948029e-05,1.0215753404096972e-05,5.7618991167629474e-05
4.590406179428101,4.464693802486153e-05,2.7563752904136152e-05,1.4625536563173114e-05,-2.844896423948029e-05,1.021575340498515e-05,5.7618991166741296e-05
4.600405216217041,4.464693802486153e-05,2.7563752904136152e-05,1.4625536561396757e-05,-2.844896423859211e-05,1.021575340498515e-05,5.7618991166741296e-05
4.610414505004883,4.473415042927087e-05,2.0767397153065303e-05,1.9848669277067188e-05,-2.7806246614581198e-05,8.42670087397579e-06,5.732106429423567e-05
4.6203203201293945,4.464693802486153e-05,2.7563752904136152e-05,1.4625536562284935e-05,-2.844896423948029e-05,1.021575340498515e-05,5.7618991166741296e-05
4.6303791999816895,4.464693802486153e-05,2.7563752903247973e-05,1.4625536561396757e-05,-2.844896423859211e-05,1.0215753404096972e-05,5.761899116585312e-05
4.640301704406738,4.464693802486153e-05,2.7563752904136152e-05,1.4625536563173114e-05,-2.844896423859211e-05,1.0215753404096972e-05,5.7618991166741296e-05
4.6503355503082275,4.464693802486153e-05,2.7563752904136152e-05,1.4625536561396757e-05,-2.844896423948029e-05,1.0215753404096972e-05,5.7618991166741296e-05
4.660501480102539,4.464693802486153e-05,2.7563752903247973e-05,1.4625536562284935e-05,-2.844896423859211e-05,1.021575340498515e-05,5.7618991166741296e-05
4.670331716537476,4.464693802486153e-05,2.7563752904136152e-05,1.4625536562284935e-05,-2.844896423859211e-05,1.0215753404096972e-05,5.7618991166741296e-05
4.6805291175842285,4.464693802486153e-05,2.7563752904136152e-05,1.4625536561396757e-05,-2.844896423859211e-05,1.0215753404096972e-05,5.7618991167629474e-05
4.69022274017334,4.473415043015905e-05,2.0767397153953482e-05,1.984866927529083e-05,-2.7806246614581198e-05,8.42670087397579e-06,5.732106429423567e-05
4.700047016143799,4.473415042927087e-05,2.0767397153065303e-05,1.9848669277955366e-05,-2.780624661369302e-05,8.42670087397579e-06,5.732106429245931e-05
4.7107765674591064,4.464693802486153e-05,2.7563752903247973e-05,1.4625536562284935e-05,-2.844896423859211e-05,1.0215753404096972e-05,5.7618991166741296e-05
4.720527172088623,4.464693802486153e-05,2.7563752904136152e-05,1.4625536561396757e-05,-2.844896423859211e-05,1.021575340498515e-05,5.7618991166741296e-05
4.734065771102905,4.464693802486153e-05,2.7563752904136152e-05,1.4625536562284935e-05,-2.844896423948029e-05,1.0215753404096972e-05,5.761899116585312e-05
4.740274667739868,4.473415042927087e-05,2.0767397153065303e-05,1.9848669277955366e-05,-2.7806246614581198e-05,8.42670087397579e-06,5.732106429245931e-05
4.750053882598877,4.464693802486153e-05,2.7563752903247973e-05,1.4625536562284935e-05,-2.844896423859211e-05,1.021575340498515e-05,5.7618991166741296e-05
4.767995834350586,4.464693802486153e-05,2.7563752903247973e-05,1.4625536561396757e-05,-2.844896423859211e-05,1.0215753404096972e-05,5.7618991167629474e-05
4.770312070846558,4.464693802486153e-05,2.7563752903247973e-05,1.4625536562284935e-05,-2.844896423859211e-05,1.0215753404096972e-05,5.761899116585312e-05
4.780039548873901,4.473415043015905e-05,2.0767397153953482e-05,1.9848669277067188e-05,-2.7806246614581198e-05,8.42670087397579e-06,5.732106429245931e-05
4.792492866516113,4.473415042927087e-05,2.0767397153065303e-05,1.9848669277067188e-05,-2.7806246614581198e-05,8.42670087397579e-06,5.732106429423567e-05
4.800118446350098,4.473415043015905e-05,2.0767397153065303e-05,1.984866927617901e-05,-2.7806246614581198e-05,8.426700873087611e-06,5.732106429245931e-05
4.8111958503723145,4.473415042927087e-05,2.0767397153065303e-05,1.9848669277067188e-05,-2.7806246614581198e-05,8.426700873087611e-06,5.732106429245931e-05
4.820338726043701,4.473415042927087e-05,2.0767397153065303e-05,1.9848669277067188e-05,-2.7806246614581198e-05,8.42670087397579e-06,5.732106429245931e-05
4.831003427505493,4.473415043015905e-05,2.0767397153065303e-05,1.9848669277067188e-05,-2.7806246614581198e-05,8.42670087397579e-06,5.732106429423567e-05
4.840256690979004,4.464693802486153e-05,2.7563752904136152e-05,1.4625536561396757e-05,-2.844896423948029e-05,1.0215753404096972e-05,5.761899116585312e-05
4.852578163146973,4.473415042927087e-05,2.0767397153065303e-05,1.9848669277067188e-05,-2.7806246614581198e-05,8.42670087397579e-06,5.732106429423567e-05
4.8603737354278564,4.464693802486153e-05,2.7563752903247973e-05,1.4625536564061292e-05,-2.844896423948029e-05,1.0215753404096972e-05,5.7618991166741296e-05
4.871355772018433,4.473415043015905e-05,2.0767397153953482e-05,1.984866927617901e-05,-2.7806246614581198e-05,8.42670087397579e-06,5.732106429245931e-05
4.880482912063599,4.473415042927087e-05,2.0767397153065303e-05,1.9848669277067188e-05,-2.780624661369302e-05,8.42670087397579e-06,5.732106429245931e-05
4.89087176322937,4.473415042927087e-05,2.0767397153065303e-05,1.9848669277067188e-05,-2.7806246614581198e-05,8.42670087397579e-06,5.732106429512385e-05
4.900558710098267,4.473415042927087e-05,2.0767397153065303e-05,1.9848669277067188e-05,-2.7806246614581198e-05,8.42670087397579e-06,5.732106429334749e-05
4.913240194320679,4.464693802486153e-05,2.7563752903247973e-05,1.4625536563173114e-05,-2.844896423859211e-05,1.0215753404096972e-05,5.7618991166741296e-05
4.920498847961426,4.473415042927087e-05,2.0767397153065303e-05,1.984866927617901e-05,-2.7806246614581198e-05,8.42670087397579e-06,5.732106429245931e-05
4.9304518699646,4.473415042927087e-05,2.0767397153065303e-05,1.9848669277067188e-05,-2.7806246614581198e-05,8.42670087397579e-06,5.732106429334749e-05
4.940080642700195,4.464693802486153e-05,2.7563752904136152e-05,1.4625536562284935e-05,-2.844896423859211e-05,1.0215753404096972e-05,5.7618991167629474e-05
4.955384731292725,4.464693802486153e-05,2.7563752903247973e-05,1.4625536562284935e-05,-2.844896423948029e-05,1.021575340498515e-05,5.7618991166741296e-05
4.960411548614502,4.473415042927087e-05,2.0767397153065303e-05,1.984866927617901e-05,-2.7806246614581198e-05,8.42670087397579e-06,5.732106429334749e-05
4.971332550048828,4.473415042927087e-05,2.0767397153953482e-05,1.9848669278843545e-05,-2.7806246614581198e-05,8.42670087397579e-06,5.732106429245931e-05
4.981412649154663,4.473415042927087e-05,2.0767397153953482e-05,1.9848669277067188e-05,-2.7806246614581198e-05,8.42670087397579e-06,5.732106429245931e-05
4.990744113922119,4.464693802486153e-05,2.7563752903247973e-05,1.4625536563173114e-05,-2.844896423859211e-05,1.0215753404096972e-05,5.7618991166741296e-05
5.000213623046875,4.473415042927087e-05,2.0767397153065303e-05,1.9848669277955366e-05,-2.780624661369302e-05,8.426700873087611e-06,5.732106429423567e-05
5.010499000549316,4.473415043015905e-05,2.0767397153065303e-05,1.9848669277067188e-05,-2.7806246614581198e-05,8.42670087397579e-06,5.732106429245931e-05
5.020153284072876,4.464693802486153e-05,2.7563752903247973e-05,1.4625536561396757e-05,-2.844896423859211e-05,1.021575340498515e-05,5.7618991167629474e-05
5.0302815437316895,4.473415042927087e-05,2.0767397153065303e-05,1.984866927617901e-05,-2.7806246614581198e-05,8.42670087397579e-06,5.732106429245931e-05
5.0401012897491455,4.464693802486153e-05,2.7563752904136152e-05,1.4625536564061292e-05,-2.844896423859211e-05,1.0215753404096972e-05,5.7618991166741296e-05
5.050428628921509,4.464693802486153e-05,2.7563752903247973e-05,1.4625536562284935e-05,-2.844896423859211e-05,1.0215753404096972e-05,5.761899116585312e-05
5.060340881347656,4.464693802486153e-05,2.7563752903247973e-05,1.4625536561396757e-05,-2.844896423859211e-05,1.021575340498515e-05,5.7618991167629474e-05
5.070436000823975,4.473415043015905e-05,2.0767397153953482e-05,1.9848669277955366e-05,-2.7806246614581198e-05,8.426700873087611e-06,5.732106429245931e-05
5.080662965774536,4.464693802486153e-05,2.7563752903247973e-05,1.4625536562284935e-05,-2.844896423948029e-05,1.021575340498515e-05,5.761899116585312e-05
5.0902345180511475,4.473415042927087e-05,2.0767397153065303e-05,1.9848669277955366e-05,-2.7806246614581198e-05,8.42670087397579e-06,5.732106429245931e-05
5.100728273391724,4.464693802486153e-05,2.7563752903247973e-05,1.4625536561396757e-05,-2.844896423859211e-05,1.021575340498515e-05,5.761899116585312e-05
5.110198497772217,4.464693802486153e-05,2.7563752904136152e-05,1.4625536562284935e-05,-2.844896423859211e-05,1.0215753404096972e-05,5.761899116585312e-05
5.120934724807739,4.473415042927087e-05,2.0767397153065303e-05,1.9848669277067188e-05,-2.7806246614581198e-05,8.42670087397579e-06,5.732106429245931e-05
5.130664348602295,4.464693802486153e-05,2.7563752904136152e-05,1.4625536564061292e-05,-2.844896423859211e-05,1.021575340498515e-05,5.7618991166741296e-05
5.141420841217041,4.473415042927087e-05,2.0767397153953482e-05,1.984866927617901e-05,-2.780624661369302e-05,8.426700873087611e-06,5.732106429334749e-05
5.151531934738159,4.473415042927087e-05,2.0767397153065303e-05,1.9848669277067188e-05,-2.780624661369302e-05,8.42670087397579e-06,5.732106429245931e-05
5.16455864906311,4.473415043015905e-05,2.0767397153065303e-05,1.9848669277067188e-05,-2.7806246614581198e-05,8.42670087397579e-06,5.732106429512385e-05
5.17020845413208,4.464693802486153e-05,2.7563752903247973e-05,1.4625536562284935e-05,-2.844896423859211e-05,1.021575340498515e-05,5.761899116585312e-05
5.180445671081543,4.473415042927087e-05,2.0767397153065303e-05,1.9848669277067188e-05,-2.7806246614581198e-05,8.42670087397579e-06,5.732106429157113e-05
5.191927909851074,4.473415043015905e-05,2.0767397153065303e-05,1.9848669277067188e-05,-2.7806246614581198e-05,8.426700873087611e-06,5.732106429512385e-05
5.202650785446167,4.464693802486153e-05,2.7563752904136152e-05,1.4625536561396757e-05,-2.844896423859211e-05,1.021575340498515e-05,5.7618991166741296e-05
5.211604118347168,4.473415042927087e-05,2.0767397153953482e-05,1.9848669274402653e-05,-2.780624661369302e-05,8.42670087397579e-06,5.732106429334749e-05
5.224313974380493,4.473415042927087e-05,2.0767397153065303e-05,1.9848669277955366e-05,-2.7806246614581198e-05,8.42670087397579e-06,5.732106429423567e-05
5.230989217758179,4.464693802486153e-05,2.7563752903247973e-05,1.4625536561396757e-05,-2.844896423859211e-05,1.021575340498515e-05,5.761899116585312e-05
5.2454118728637695,4.464693802486153e-05,2.7563752904136152e-05,1.4625536561396757e-05,-2.844896423859211e-05,1.0215753404096972e-05,5.7618991166741296e-05
5.2515857219696045,4.473415042927087e-05,2.0767397153065303e-05,1.9848669277067188e-05,-2.7806246614581198e-05,8.42670087397579e-06,5.732106429423567e-05
5.261844635009766,4.464693802486153e-05,2.7563752903247973e-05,1.4625536561396757e-05,-2.844896423859211e-05,1.0215753404096972e-05,5.7618991167629474e-05
5.270215034484863,4.473415043015905e-05,2.0767397153065303e-05,1.9848669277955366e-05,-2.7806246614581198e-05,8.42670087397579e-06,5.732106429423567e-05
5.280268907546997,4.464693802486153e-05,2.7563752903247973e-05,1.462553656494947e-05,-2.844896423859211e-05,1.021575340498515e-05,5.7618991166741296e-05
5.290541172027588,4.464693802486153e-05,2.7563752903247973e-05,1.4625536563173114e-05,-2.844896423859211e-05,1.021575340498515e-05,5.7618991166741296e-05
5.301041841506958,4.473415043015905e-05,2.0767397153953482e-05,1.984866927617901e-05,-2.7806246614581198e-05,8.42670087397579e-06,5.732106429245931e-05
5.3124072551727295,4.464693802486153e-05,2.7563752904136152e-05,1.4625536563173114e-05,-2.844896423859211e-05,1.0215753404096972e-05,5.761899116585312e-05
5.320392847061157,4.464693802486153e-05,2.7563752903247973e-05,1.4625536564061292e-05,-2.844896423859211e-05,1.0215753404096972e-05,5.7618991166741296e-05
5.333435773849487,4.464693802486153e-05,2.7563752903247973e-05,1.4625536562284935e-05,-2.844896423859211e-05,1.0215753404096972e-05,5.7618991166741296e-05
5.340339660644531,4.464693802486153e-05,2.7563752903247973e-05,1.4625536561396757e-05,-2.844896423859211e-05,1.0215753404096972e-05,5.7618991166741296e-05
5.352560520172119,4.473415042927087e-05,2.0767397153065303e-05,1.9848669274402653e-05,-2.780624661369302e-05,8.42670087397579e-06,5.732106429423567e-05
5.361443758010864,4.464693802486153e-05,2.7563752903247973e-05,1.4625536562284935e-05,-2.844896423859211e-05,1.0215753404096972e-05,5.761899116585312e-05
5.370494842529297,4.473415043015905e-05,2.0767397153065303e-05,1.9848669277067188e-05,-2.7806246614581198e-05,8.42670087397579e-06,5.732106429334749e-05
5.380810260772705,4.464693802486153e-05,2.7563752904136152e-05,1.4625536562284935e-05,-2.844896423859211e-05,1.0215753404096972e-05,5.761899116585312e-05
5.390911102294922,4.464693802486153e-05,2.7563752904136152e-05,1.4625536562284935e-05,-2.844896423948029e-05,1.0215753404096972e-05,5.7618991166741296e-05
5.400097131729126,4.473415043015905e-05,2.0767397153065303e-05,1.9848669278843545e-05,-2.780624661369302e-05,8.42670087397579e-06,5.732106429423567e-05
5.410844564437866,4.464693802486153e-05,2.7563752903247973e-05,1.4625536563173114e-05,-2.844896423859211e-05,1.0215753404096972e-05,5.761899116585312e-05
5.420254945755005,4.473415043015905e-05,2.0767397153065303e-05,1.9848669277955366e-05,-2.7806246614581198e-05,8.426700873087611e-06,5.732106429245931e-05
5.437695741653442,4.464693802486153e-05,2.7563752904136152e-05,1.4625536561396757e-05,-2.844896423859211e-05,1.021575340498515e-05,5.761899116585312e-05
5.440595388412476,4.464693802486153e-05,2.7563752904136152e-05,1.4625536561396757e-05,-2.844896423859211e-05,1.021575340498515e-05,5.761899116585312e-05
5.454713344573975,4.473415042927087e-05,2.0767397153953482e-05,1.9848669277067188e-05,-2.7806246614581198e-05,8.42670087397579e-06,5.732106429334749e-05
5.460451364517212,4.473415042927087e-05,2.0767397153065303e-05,1.9848669277955366e-05,-2.7806246614581198e-05,8.42670087397579e-06,5.732106429157113e-05
5.474846124649048,4.473415042927087e-05,2.0767397153065303e-05,1.9848669277955366e-05,-2.7806246614581198e-05,8.42670087397579e-06,5.732106429157113e-05
5.482980966567993,4.473415042927087e-05,2.0767397153065303e-05,1.9848669277955366e-05,-2.7806246614581198e-05,8.426700873087611e-06,5.732106429334749e-05
5.490569353103638,4.473415042927087e-05,2.0767397153953482e-05,1.984866927617901e-05,-2.7806246614581198e-05,8.42670087397579e-06,5.732106429245931e-05
5.5004799365997314,4.473415042927087e-05,2.0767397153953482e-05,1.984866927617901e-05,-2.7806246614581198e-05,8.42670087397579e-06,5.732106429245931e-05
5.51067590713501,4.464693802486153e-05,2.7563752904136152e-05,1.4625536561396757e-05,-2.844896423948029e-05,1.0215753404096972e-05,5.7618991167629474e-05
5.520469665527344,4.473415043015905e-05,2.0767397153065303e-05,1.9848669277955366e-05,-2.7806246614581198e-05,8.42670087397579e-06,5.732106429157113e-05
5.530721426010132,4.473415043015905e-05,2.0767397153065303e-05,1.9848669277955366e-05,-2.780624661369302e-05,8.426700873087611e-06,5.732106429245931e-05
5.540207147598267,4.464693802486153e-05,2.7563752904136152e-05,1.4625536562284935e-05,-2.844896423859211e-05,1.0215753404096972e-05,5.7618991167629474e-05
5.551319599151611,4.464693802486153e-05,2.7563752904136152e-05,1.4625536563173114e-05,-2.844896423948029e-05,1.0215753404096972e-05,5.761899116585312e-05
5.560040473937988,4.464693802486153e-05,2.7563752903247973e-05,1.4625536562284935e-05,-2.844896423859211e-05,1.0215753404096972e-05,5.7618991166741296e-05
5.571518898010254,4.464693802486153e-05,2.7563752903247973e-05,1.4625536561396757e-05,-2.844896423859211e-05,1.0215753404096972e-05,5.7618991167629474e-05
5.58033299446106,4.464693802486153e-05,2.7563752904136152e-05,1.4625536562284935e-05,-2.844896423948029e-05,1.0215753404096972e-05,5.7618991166741296e-05
5.592015504837036,4.464693802486153e-05,2.7563752903247973e-05,1.4625536561396757e-05,-2.844896423859211e-05,1.021575340498515e-05,5.7618991166741296e-05
5.600148677825928,4.473415042927087e-05,2.0767397153065303e-05,1.984866927617901e-05,-2.7806246614581198e-05,8.426700873087611e-06,5.732106429245931e-05
5.610669851303101,4.473415042927087e-05,2.0767397153065303e-05,1.984866927617901e-05,-2.7806246614581198e-05,8.42670087397579e-06,5.732106429334749e-05
5.622381687164307,4.464693802486153e-05,2.7563752904136152e-05,1.4625536561396757e-05,-2.844896423859211e-05,1.0215753404096972e-05,5.7618991166741296e-05
5.631232023239136,4.473415043015905e-05,2.0767397153065303e-05,1.9848669277067188e-05,-2.780624661369302e-05,8.42670087397579e-06,5.732106429245931e-05
5.6406261920928955,4.464693802486153e-05,2.7563752903247973e-05,1.4625536562284935e-05,-2.844896423859211e-05,1.0215753404096972e-05,5.761899116585312e-05
5.651144504547119,4.473415043015905e-05,2.0767397153065303e-05,1.9848669277955366e-05,-2.780624661369302e-05,8.42670087397579e-06,5.732106429334749e-05
5.661327600479126,4.473415042927087e-05,2.0767397153953482e-05,1.9848669277955366e-05,-2.7806246614581198e-05,8.42670087397579e-06,5.732106429423567e-05
5.672674179077148,4.464693802486153e-05,2.7563752904136152e-05,1.4625536563173114e-05,-2.844896423948029e-05,1.0215753404096972e-05,5.761899116585312e-05
5.68648362159729,4.464693802486153e-05,2.7563752904136152e-05,1.4625536561396757e-05,-2.844896423859211e-05,1.021575340498515e-05,5.7618991166741296e-05
5.6932127475738525,4.473415042927087e-05,2.0767397153953482e-05,1.9848669277955366e-05,-2.7806246614581198e-05,8.42670087397579e-06,5.732106429245931e-05
5.700389385223389,4.464693802486153e-05,2.7563752904136152e-05,1.4625536561396757e-05,-2.844896423859211e-05,1.021575340498515e-05,5.7618991166741296e-05
5.710149526596069,4.473415042927087e-05,2.0767397153953482e-05,1.9848669277955366e-05,-2.7806246614581198e-05,8.42670087397579e-06,5.732106429423567e-05
5.720529794692993,4.464693802486153e-05,2.7563752904136152e-05,1.4625536562284935e-05,-2.844896423859211e-05,1.0215753404096972e-05,5.7618991166741296e-05
5.731223821640015,4.464693802486153e-05,2.7563752904136152e-05,1.462553656494947e-05,-2.844896423859211e-05,1.021575340498515e-05,5.761899116585312e-05
5.740718603134155,4.464693802486153e-05,2.7563752903247973e-05,1.4625536562284935e-05,-2.844896423859211e-05,1.0215753404096972e-05,5.7618991167629474e-05
5.750117540359497,4.473415043015905e-05,2.0767397153953482e-05,1.9848669277067188e-05,-2.7806246614581198e-05,8.42670087397579e-06,5.732106429423567e-05
5.760303497314453,4.464693802486153e-05,2.7563752904136152e-05,1.4625536562284935e-05,-2.844896423859211e-05,1.0215753404096972e-05,5.7618991166741296e-05
5.772587299346924,4.473415043015905e-05,2.0767397153065303e-05,1.9848669277067188e-05,-2.7806246614581198e-05,8.42670087397579e-06,5.732106429245931e-05
5.7803895473480225,4.464693802486153e-05,2.7563752903247973e-05,1.4625536562284935e-05,-2.844896423859211e-05,1.0215753404096972e-05,5.7618991166741296e-05
5.7921648025512695,4.464693802486153e-05,2.7563752903247973e-05,1.4625536563173114e-05,-2.844896423948029e-05,1.0215753404096972e-05,5.761899116585312e-05
5.80021858215332,4.464693802486153e-05,2.7563752904136152e-05,1.4625536562284935e-05,-2.844896423859211e-05,1.021575340498515e-05,5.7618991166741296e-05
5.8106303215026855,4.464693802486153e-05,2.7563752904136152e-05,1.4625536563173114e-05,-2.844896423859211e-05,1.0215753404096972e-05,5.7618991166741296e-05
5.820061683654785,4.473415042927087e-05,2.0767397153065303e-05,1.9848669277067188e-05,-2.7806246614581198e-05,8.42670087397579e-06,5.732106429245931e-05
5.830697059631348,4.464693802486153e-05,2.7563752903247973e-05,1.4625536562284935e-05,-2.844896423859211e-05,1.0215753404096972e-05,5.761899116585312e-05
5.840179204940796,4.464693802486153e-05,2.7563752903247973e-05,1.4625536561396757e-05,-2.844896423948029e-05,1.021575340498515e-05,5.7618991166741296e-05
5.852026700973511,4.473415042927087e-05,2.0767397153065303e-05,1.9848669277955366e-05,-2.7806246614581198e-05,8.426700873087611e-06,5.732106429423567e-05
5.860678434371948,4.473415042927087e-05,2.0767397153953482e-05,1.984866927617901e-05,-2.7806246614581198e-05,8.42670087397579e-06,5.732106429157113e-05
5.882268667221069,4.464693802486153e-05,2.7563752903247973e-05,1.4625536563173114e-05,-2.844896423859211e-05,1.021575340498515e-05,5.7618991166741296e-05
5.8902528285980225,4.464693802486153e-05,2.7563752904136152e-05,1.4625536564061292e-05,-2.844896423859211e-05,1.0215753404096972e-05,5.7618991166741296e-05
5.902464866638184,4.464693802486153e-05,2.7563752903247973e-05,1.4625536562284935e-05,-2.844896423859211e-05,1.021575340498515e-05,5.7618991166741296e-05
5.910300970077515,4.473415042927087e-05,2.0767397153953482e-05,1.9848669277067188e-05,-2.7806246614581198e-05,8.426700873087611e-06,5.732106429245931e-05
5.92033576965332,4.473415043015905e-05,2.0767397153065303e-05,1.9848669277067188e-05,-2.780624661369302e-05,8.42670087397579e-06,5.732106429512385e-05
5.930092096328735,4.473415043015905e-05,2.0767397153065303e-05,1.9848669277067188e-05,-2.7806246614581198e-05,8.42670087397579e-06,5.732106429423567e-05
5.940097332000732,4.473415043015905e-05,2.0767397153065303e-05,1.9848669277067188e-05,-2.780624661369302e-05,8.42670087397579e-06,5.732106429245931e-05
5.950026988983154,4.464693802486153e-05,2.7563752903247973e-05,1.4625536562284935e-05,-2.844896423859211e-05,1.021575340498515e-05,5.7618991166741296e-05
5.960497617721558,4.464693802486153e-05,2.7563752903247973e-05,1.4625536563173114e-05,-2.844896423859211e-05,1.021575340498515e-05,5.7618991166741296e-05
5.970491886138916,4.464693802486153e-05,2.7563752904136152e-05,1.4625536561396757e-05,-2.844896423859211e-05,1.0215753404096972e-05,5.7618991166741296e-05
5.981612205505371,4.464693802486153e-05,2.7563752903247973e-05,1.4625536563173114e-05,-2.844896423859211e-05,1.0215753404096972e-05,5.7618991166741296e-05
5.990875244140625,4.473415042927087e-05,2.0767397153065303e-05,1.9848669277067188e-05,-2.780624661369302e-05,8.42670087397579e-06,5.732106429423567e-05
6.001205205917358,4.464693802486153e-05,2.7563752904136152e-05,1.4625536562284935e-05,-2.844896423859211e-05,1.021575340498515e-05,5.7618991166741296e-05
6.012625217437744,4.464693802486153e-05,2.7563752903247973e-05,1.4625536561396757e-05,-2.844896423948029e-05,1.0215753404096972e-05,5.7618991166741296e-05
6.021558046340942,4.473415042927087e-05,2.0767397153065303e-05,1.984866927617901e-05,-2.7806246614581198e-05,8.42670087397579e-06,5.732106429245931e-05
6.0304460525512695,4.464693802486153e-05,2.7563752903247973e-05,1.4625536561396757e-05,-2.844896423859211e-05,1.021575340498515e-05,5.761899116585312e-05
6.047231912612915,4.473415043015905e-05,2.0767397153953482e-05,1.9848669277067188e-05,-2.7806246614581198e-05,8.42670087397579e-06,5.732106429334749e-05
6.050153732299805,4.473415042927087e-05,2.0767397153065303e-05,1.9848669277067188e-05,-2.7806246614581198e-05,8.42670087397579e-06,5.732106429157113e-05
6.061256170272827,4.464693802486153e-05,2.7563752904136152e-05,1.4625536561396757e-05,-2.844896423859211e-05,1.0215753404096972e-05,5.7618991166741296e-05
6.071267127990723,4.473415042927087e-05,2.0767397153065303e-05,1.9848669277955366e-05,-2.7806246614581198e-05,8.426700873087611e-06,5.732106429423567e-05
6.0801801681518555,4.473415043015905e-05,2.0767397153065303e-05,1.9848669277955366e-05,-2.7806246614581198e-05,8.42670087397579e-06,5.732106429334749e-05
6.093722343444824,4.464693802486153e-05,2.7563752904136152e-05,1.4625536562284935e-05,-2.844896423948029e-05,1.0215753404096972e-05,5.7618991167629474e-05
6.108681678771973,4.464693802486153e-05,2.7563752903247973e-05,1.4625536562284935e-05,-2.844896423859211e-05,1.0215753404096972e-05,5.7618991167629474e-05
6.112128257751465,4.464693802486153e-05,2.7563752904136152e-05,1.4625536563173114e-05,-2.844896423859211e-05,1.0215753404096972e-05,5.761899116585312e-05
6.122141599655151,4.473415042927087e-05,2.0767397153953482e-05,1.9848669277067188e-05,-2.7806246614581198e-05,8.42670087397579e-06,5.732106429157113e-05
6.130449533462524,4.473415043015905e-05,2.0767397153065303e-05,1.9848669274402653e-05,-2.7806246614581198e-05,8.42670087397579e-06,5.732106429334749e-05
6.141033172607422,4.473415042927087e-05,2.0767397153065303e-05,1.9848669277067188e-05,-2.7806246614581198e-05,8.426700873087611e-06,5.732106429245931e-05
6.150049686431885,4.464693802486153e-05,2.7563752903247973e-05,1.4625536562284935e-05,-2.844896423859211e-05,1.0215753404096972e-05,5.7618991166741296e-05
6.1600658893585205,4.464693802486153e-05,2.7563752903247973e-05,1.4625536561396757e-05,-2.844896423859211e-05,1.021575340498515e-05,5.7618991166741296e-05
6.170083045959473,4.464693802486153e-05,2.7563752904136152e-05,1.4625536561396757e-05,-2.844896423859211e-05,1.0215753404096972e-05,5.7618991167629474e-05
6.180372476577759,4.464693802486153e-05,2.7563752904136152e-05,1.4625536563173114e-05,-2.844896423859211e-05,1.0215753404096972e-05,5.761899116585312e-05
6.190692663192749,4.464693802486153e-05,2.7563752904136152e-05,1.4625536561396757e-05,-2.844896423948029e-05,1.0215753404096972e-05,5.7618991166741296e-05
6.200469255447388,4.464693802486153e-05,2.7563752903247973e-05,1.4625536563173114e-05,-2.844896423859211e-05,1.021575340498515e-05,5.7618991166741296e-05
6.210086822509766,4.464693802486153e-05,2.7563752904136152e-05,1.4625536562284935e-05,-2.844896423948029e-05,1.021575340498515e-05,5.7618991166741296e-05
6.220798015594482,4.473415042927087e-05,2.0767397153065303e-05,1.9848669277955366e-05,-2.780624661369302e-05,8.42670087397579e-06,5.732106429334749e-05
6.230541467666626,4.464693802486153e-05,2.7563752904136152e-05,1.4625536563173114e-05,-2.844896423948029e-05,1.0215753404096972e-05,5.761899116585312e-05
6.2465479373931885,4.473415043015905e-05,2.0767397153065303e-05,1.9848669277955366e-05,-2.7806246614581198e-05,8.42670087397579e-06,5.732106429334749e-05
6.250262975692749,4.473415042927087e-05,2.0767397153065303e-05,1.9848669277067188e-05,-2.780624661369302e-05,8.42670087397579e-06,5.732106429423567e-05
6.260067939758301,4.464693802486153e-05,2.7563752903247973e-05,1.4625536562284935e-05,-2.844896423948029e-05,1.021575340498515e-05,5.761899116585312e-05
6.271100044250488,4.473415043015905e-05,2.0767397153065303e-05,1.9848669278843545e-05,-2.7806246614581198e-05,8.426700873087611e-06,5.732106429334749e-05
6.280317068099976,4.473415042927087e-05,2.0767397153953482e-05,1.984866927617901e-05,-2.7806246614581198e-05,8.42670087397579e-06,5.732106429157113e-05
6.291734218597412,4.464693802486153e-05,2.7563752904136152e-05,1.4625536561396757e-05,-2.844896423948029e-05,1.0215753404096972e-05,5.7618991166741296e-05
6.302971839904785,4.464693802486153e-05,2.7563752904136152e-05,1.4625536563173114e-05,-2.844896423859211e-05,1.0215753404096972e-05,5.761899116585312e-05
6.310151815414429,4.473415043015905e-05,2.0767397153065303e-05,1.9848669277067188e-05,-2.7806246614581198e-05,8.42670087397579e-06,5.732106429245931e-05
6.320208787918091,4.464693802486153e-05,2.7563752904136152e-05,1.4625536562284935e-05,-2.844896423859211e-05,1.0215753404096972e-05,5.7618991166741296e-05
6.334174156188965,4.473415043015905e-05,2.0767397153065303e-05,1.9848669277067188e-05,-2.7806246614581198e-05,8.42670087397579e-06,5.732106429245931e-05
6.3401103019714355,4.464693802486153e-05,2.7563752904136152e-05,1.4625536562284935e-05,-2.844896423859211e-05,1.021575340498515e-05,5.7618991166741296e-05
6.350226163864136,4.473415042927087e-05,2.0767397153065303e-05,1.9848669277067188e-05,-2.7806246614581198e-05,8.42670087397579e-06,5.732106429245931e-05
6.365045785903931,4.464693802486153e-05,2.7563752903247973e-05,1.4625536562284935e-05,-2.844896423859211e-05,1.0215753404096972e-05,5.761899116585312e-05
6.371662616729736,4.473415042927087e-05,2.0767397153953482e-05,1.9848669277955366e-05,-2.7806246614581198e-05,8.426700873087611e-06,5.732106429245931e-05
6.380459547042847,4.464693802486153e-05,2.7563752904136152e-05,1.4625536562284935e-05,-2.844896423859211e-05,1.0215753404096972e-05,5.761899116585312e-05
6.39047646522522,4.473415043015905e-05,2.0767397153065303e-05,1.9848669277067188e-05,-2.7806246614581198e-05,8.42670087397579e-06,5.732106429157113e-05
6.4002649784088135,4.473415042927087e-05,2.0767397153953482e-05,1.9848669277067188e-05,-2.7806246614581198e-05,8.42670087397579e-06,5.732106429245931e-05
6.410848617553711,4.464693802486153e-05,2.7563752903247973e-05,1.4625536561396757e-05,-2.844896423948029e-05,1.0215753404096972e-05,5.7618991166741296e-05
6.4282753467559814,4.473415042927087e-05,2.0767397153065303e-05,1.9848669277955366e-05,-2.7806246614581198e-05,8.42670087397579e-06,5.732106429157113e-05
6.4300878047943115,4.473415043015905e-05,2.0767397153953482e-05,1.9848669277955366e-05,-2.7806246614581198e-05,8.426700873087611e-06,5.732106429245931e-05
6.442219972610474,4.464693802486153e-05,2.7563752904136152e-05,1.4625536562284935e-05,-2.844896423859211e-05,1.0215753404096972e-05,5.761899116585312e-05
6.450207710266113,4.464693802486153e-05,2.7563752903247973e-05,1.4625536562284935e-05,-2.844896423859211e-05,1.0215753404096972e-05,5.761899116585312e-05
6.460326433181763,4.473415042927087e-05,2.0767397153953482e-05,1.9848669277955366e-05,-2.7806246614581198e-05,8.42670087397579e-06,5.732106429334749e-05
